;FLAVOR:Marlin
;TIME:3088
;Filament used: 2.98408m
;Layer height: 0.3
;MINX:66
;MINY:94.035
;MINZ:0.2
;MAXX:163
;MAXY:131.035
;MAXZ:11.9
;Generated with Cura_SteamEngine 4.8.0
M140 S50
M105
M190 S50
M104 S200
M105
M109 S200
M82 ;absolute extrusion mode
; Ender 3 Custom Start G-code
G92 E0 ; Reset Extruder
G28 ; Home all axes
G1 Z2.0 F3000 ; Move Z Axis up little to prevent scratching of Heat Bed
G1 X0.1 Y20 Z0.3 F5000.0 ; Move to start position
G1 X0.1 Y200.0 Z0.3 F1500.0 E15 ; Draw the first line
G1 X0.4 Y200.0 Z0.3 F5000.0 ; Move to side a little
G1 X0.4 Y20 Z0.3 F1500.0 E30 ; Draw the second line
G92 E0 ; Reset Extruder
G1 Z2.0 F3000 ; Move Z Axis up little to prevent scratching of Heat Bed
G1 X5 Y20 Z0.3 F5000.0 ; Move over to prevent blob squish
G92 E0
G92 E0
G1 F2700 E-5
;LAYER_COUNT:40
;LAYER:0
M107
G0 F6000 X70.626 Y96.086 Z0.2
;TYPE:SKIRT
G1 F2700 E0
G1 F1200 X71.412 Y95.574 E0.0312
G1 X72.239 Y95.132 E0.06239
G1 X73.101 Y94.762 E0.09359
G1 X73.991 Y94.466 E0.12478
G1 X74.903 Y94.248 E0.15597
G1 X75.83 Y94.107 E0.18716
G1 X76.701 Y94.048 E0.21619
G1 X77.022 Y94.039 E0.22687
G1 X77.33 Y94.035 E0.23712
G1 X151.293 Y94.035 E2.69714
G1 X152.149 Y94.046 E2.72561
G1 X153.085 Y94.1 E2.7568
G1 X154.013 Y94.232 E2.78797
G1 X154.927 Y94.444 E2.81918
G1 X155.819 Y94.733 E2.85036
G1 X156.684 Y95.096 E2.88157
G1 X157.514 Y95.532 E2.91275
G1 X158.305 Y96.037 E2.94396
G1 X159.049 Y96.608 E2.97515
G1 X159.742 Y97.24 E3.00635
G1 X160.379 Y97.928 E3.03753
G1 X160.954 Y98.669 E3.06873
G1 X161.465 Y99.455 E3.09991
G1 X161.907 Y100.283 E3.13113
G1 X162.276 Y101.145 E3.16232
G1 X162.571 Y102.035 E3.1935
G1 X162.789 Y102.947 E3.22469
G1 X162.929 Y103.875 E3.2559
G1 X162.987 Y104.736 E3.28461
G1 X162.996 Y105.056 E3.29525
G1 X163 Y105.365 E3.30553
G1 X162.999 Y119.435 E3.7735
G1 X162.99 Y120.162 E3.79768
G1 X162.939 Y121.099 E3.82889
G1 X162.807 Y122.027 E3.86007
G1 X162.598 Y122.941 E3.89125
G1 X162.311 Y123.834 E3.92245
G1 X161.949 Y124.7 E3.95367
G1 X161.515 Y125.531 E3.98485
G1 X161.011 Y126.322 E4.01605
G1 X160.442 Y127.067 E4.04723
G1 X159.811 Y127.762 E4.07845
G1 X159.124 Y128.4 E4.10963
G1 X158.385 Y128.977 E4.14082
G1 X157.599 Y129.489 E4.17202
G1 X156.773 Y129.932 E4.20319
G1 X155.911 Y130.304 E4.23442
G1 X155.022 Y130.6 E4.26558
G1 X154.11 Y130.82 E4.29678
G1 X153.183 Y130.961 E4.32797
G1 X152.299 Y131.022 E4.35744
G1 X151.978 Y131.031 E4.36812
G1 X151.67 Y131.035 E4.37837
G1 X77.565 Y131.034 E6.84311
G1 X76.867 Y131.025 E6.86633
G1 X75.931 Y130.973 E6.89751
G1 X75.002 Y130.841 E6.92872
G1 X74.088 Y130.631 E6.95991
G1 X73.195 Y130.344 E6.99111
G1 X72.33 Y129.981 E7.02231
G1 X71.499 Y129.547 E7.05349
G1 X70.708 Y129.043 E7.08468
G1 X69.963 Y128.473 E7.11588
G1 X69.269 Y127.842 E7.14708
G1 X68.632 Y127.155 E7.17824
G1 X68.055 Y126.415 E7.20945
G1 X67.543 Y125.629 E7.24065
G1 X67.1 Y124.802 E7.27185
G1 X66.729 Y123.941 E7.30304
G1 X66.433 Y123.051 E7.33423
G1 X66.214 Y122.139 E7.36543
G1 X66.073 Y121.212 E7.39662
G1 X66.013 Y120.323 E7.42625
G1 X66.004 Y119.99 E7.43733
G1 X66 Y119.693 E7.44721
G1 X66.001 Y105.56 E7.91727
G1 X66.01 Y104.895 E7.93939
G1 X66.063 Y103.959 E7.97058
G1 X66.195 Y103.03 E8.00179
G1 X66.406 Y102.116 E8.03298
G1 X66.694 Y101.224 E8.06416
G1 X67.057 Y100.359 E8.09536
G1 X67.492 Y99.528 E8.12656
G1 X67.996 Y98.738 E8.15773
G1 X68.566 Y97.993 E8.18893
G1 X69.198 Y97.299 E8.22014
G1 X69.886 Y96.662 E8.25133
G1 X70.626 Y96.086 E8.28252
G0 F6000 X71.01 Y96.305
G1 F1200 X71.791 Y95.817 E8.31315
G1 X72.611 Y95.399 E8.34376
G1 X73.465 Y95.054 E8.3744
G1 X74.345 Y94.784 E8.40501
G1 X75.245 Y94.592 E8.43562
G1 X76.159 Y94.478 E8.46625
G1 X76.712 Y94.448 E8.48467
G1 X77.033 Y94.439 E8.49536
G1 X77.33 Y94.435 E8.50523
G1 X151.293 Y94.435 E10.96525
G1 X152.143 Y94.446 E10.99353
G1 X153.062 Y94.499 E11.02414
G1 X153.973 Y94.632 E11.05477
G1 X154.869 Y94.843 E11.08538
G1 X155.743 Y95.131 E11.11599
G1 X156.59 Y95.494 E11.14664
G1 X157.401 Y95.929 E11.17725
G1 X158.171 Y96.433 E11.20786
G1 X158.895 Y97.002 E11.23848
G1 X159.567 Y97.632 E11.26912
G1 X160.182 Y98.317 E11.29974
G1 X160.735 Y99.053 E11.33036
G1 X161.222 Y99.834 E11.36097
G1 X161.639 Y100.655 E11.3916
G1 X161.984 Y101.509 E11.42223
G1 X162.253 Y102.389 E11.45284
G1 X162.445 Y103.29 E11.48348
G1 X162.558 Y104.203 E11.51408
G1 X162.587 Y104.747 E11.5322
G1 X162.596 Y105.067 E11.54284
G1 X162.6 Y105.365 E11.55276
G1 X162.599 Y119.43 E12.02056
G1 X162.59 Y120.157 E12.04474
G1 X162.539 Y121.076 E12.07535
G1 X162.408 Y121.988 E12.106
G1 X162.198 Y122.884 E12.13661
G1 X161.912 Y123.759 E12.16722
G1 X161.551 Y124.606 E12.19785
G1 X161.117 Y125.418 E12.22847
G1 X160.615 Y126.19 E12.2591
G1 X160.047 Y126.915 E12.28973
G1 X159.419 Y127.588 E12.32035
G1 X158.735 Y128.204 E12.35096
G1 X158 Y128.758 E12.38158
G1 X157.22 Y129.247 E12.4122
G1 X156.4 Y129.666 E12.44282
G1 X155.547 Y130.012 E12.47344
G1 X154.667 Y130.283 E12.50406
G1 X153.767 Y130.476 E12.53468
G1 X152.853 Y130.591 E12.56532
G1 X152.288 Y130.622 E12.58414
G1 X151.967 Y130.631 E12.59482
G1 X151.67 Y130.635 E12.6047
G1 X77.57 Y130.634 E15.06927
G1 X76.872 Y130.625 E15.09249
G1 X75.953 Y130.573 E15.12311
G1 X75.042 Y130.442 E15.15372
G1 X74.146 Y130.232 E15.18433
G1 X73.271 Y129.945 E15.21496
G1 X72.424 Y129.583 E15.24559
G1 X71.612 Y129.149 E15.27622
G1 X70.841 Y128.647 E15.30682
G1 X70.116 Y128.079 E15.33745
G1 X69.443 Y127.45 E15.36809
G1 X68.828 Y126.766 E15.39868
G1 X68.274 Y126.031 E15.42929
G1 X67.786 Y125.25 E15.45992
G1 X67.367 Y124.43 E15.49055
G1 X67.021 Y123.577 E15.52117
G1 X66.751 Y122.697 E15.55178
G1 X66.558 Y121.796 E15.58243
G1 X66.444 Y120.883 E15.61303
G1 X66.413 Y120.312 E15.63205
G1 X66.404 Y119.979 E15.64313
G1 X66.4 Y119.693 E15.65264
G1 X66.401 Y105.566 E16.12251
G1 X66.41 Y104.901 E16.14463
G1 X66.462 Y103.981 E16.17528
G1 X66.594 Y103.07 E16.20589
G1 X66.805 Y102.174 E16.23651
G1 X67.092 Y101.299 E16.26714
G1 X67.455 Y100.453 E16.29776
G1 X67.889 Y99.641 E16.32838
G1 X68.392 Y98.87 E16.359
G1 X68.961 Y98.146 E16.38963
G1 X69.589 Y97.474 E16.42022
G1 X70.274 Y96.858 E16.45086
G1 X71.01 Y96.305 E16.48148
G0 F6000 X71.394 Y96.529
G1 F1200 X72.169 Y96.066 E16.5115
G1 X72.982 Y95.673 E16.54154
G1 X73.827 Y95.353 E16.57159
G1 X74.696 Y95.11 E16.6016
G1 X75.584 Y94.944 E16.63165
G1 X76.723 Y94.848 E16.66967
G1 X77.044 Y94.839 E16.68035
G1 X77.33 Y94.835 E16.68986
G1 X151.293 Y94.835 E19.14988
G1 X152.137 Y94.846 E19.17795
G1 X153.039 Y94.899 E19.20801
G1 X153.932 Y95.031 E19.23803
G1 X154.81 Y95.242 E19.26806
G1 X155.666 Y95.53 E19.2981
G1 X156.493 Y95.892 E19.32813
G1 X157.285 Y96.327 E19.35818
G1 X158.036 Y96.829 E19.38823
G1 X158.739 Y97.396 E19.41827
G1 X159.389 Y98.023 E19.4483
G1 X159.981 Y98.705 E19.47834
G1 X160.511 Y99.436 E19.50837
G1 X160.973 Y100.212 E19.53841
G1 X161.366 Y101.025 E19.56844
G1 X161.684 Y101.87 E19.59847
G1 X161.927 Y102.74 E19.62852
G1 X162.092 Y103.628 E19.65856
G1 X162.187 Y104.758 E19.69627
G1 X162.196 Y105.078 E19.70692
G1 X162.2 Y105.365 E19.71647
G1 X162.199 Y119.425 E20.18411
G1 X162.19 Y120.152 E20.20829
G1 X162.139 Y121.054 E20.23834
G1 X162.008 Y121.948 E20.26839
G1 X161.799 Y122.826 E20.29841
G1 X161.513 Y123.683 E20.32846
G1 X161.152 Y124.511 E20.3585
G1 X160.72 Y125.303 E20.38851
G1 X160.219 Y126.055 E20.41856
G1 X159.653 Y126.759 E20.4486
G1 X159.028 Y127.41 E20.47862
G1 X158.347 Y128.004 E20.50868
G1 X157.616 Y128.535 E20.53873
G1 X156.842 Y128.999 E20.56874
G1 X156.029 Y129.393 E20.59879
G1 X155.185 Y129.713 E20.62881
G1 X154.315 Y129.958 E20.65887
G1 X153.428 Y130.124 E20.68889
G1 X152.277 Y130.222 E20.72731
G1 X151.956 Y130.231 E20.73799
G1 X151.67 Y130.235 E20.7475
G1 X77.575 Y130.234 E23.21191
G1 X76.877 Y130.225 E23.23513
G1 X75.976 Y130.174 E23.26514
G1 X75.082 Y130.042 E23.2952
G1 X74.204 Y129.833 E23.32522
G1 X73.347 Y129.546 E23.35528
G1 X72.52 Y129.185 E23.38529
G1 X71.727 Y128.752 E23.41534
G1 X70.976 Y128.251 E23.44537
G1 X70.272 Y127.685 E23.47541
G1 X69.621 Y127.059 E23.50545
G1 X69.028 Y126.378 E23.53549
G1 X68.498 Y125.647 E23.56552
G1 X68.034 Y124.872 E23.59556
G1 X67.64 Y124.059 E23.62561
G1 X67.32 Y123.215 E23.65563
G1 X67.076 Y122.345 E23.68568
G1 X66.91 Y121.457 E23.71573
G1 X66.813 Y120.302 E23.75428
G1 X66.804 Y119.969 E23.76536
G1 X66.8 Y119.693 E23.77454
G1 X66.801 Y105.571 E24.24424
G1 X66.81 Y104.906 E24.26636
G1 X66.862 Y104.004 E24.29641
G1 X66.994 Y103.111 E24.32644
G1 X67.204 Y102.233 E24.35646
G1 X67.491 Y101.376 E24.38652
G1 X67.853 Y100.549 E24.41655
G1 X68.286 Y99.757 E24.44657
G1 X68.788 Y99.006 E24.47661
G1 X69.355 Y98.302 E24.50668
G1 X69.981 Y97.652 E24.53669
G1 X70.662 Y97.059 E24.56673
G1 X71.394 Y96.529 E24.59679
G1 F2700 E19.59679
;MESH:HDPE Slider Mount.STL
G0 F6000 X77.414 Y104.37
G0 X77.414 Y105.449
G0 X150.818 Y106.217
G0 X150.8 Y111.187
G0 X147.651 Y109.716
G0 X145.597 Y112.343
G0 X147.149 Y115.011
;TYPE:WALL-INNER
G1 F2700 E24.59679
G1 F1200 X147.838 Y115.208 E24.62062
G1 X148.285 Y115.24 E24.63553
G1 X148.997 Y115.139 E24.65944
G1 X149.686 Y114.834 E24.68451
G1 X150.263 Y114.348 E24.7096
G1 X150.609 Y113.836 E24.73015
G1 X150.686 Y113.722 E24.73473
G1 X150.919 Y113.005 E24.7598
G1 X150.946 Y112.251 E24.78489
G1 X150.761 Y111.52 E24.80997
G1 X150.612 Y111.261 E24.81991
G1 X150.385 Y110.866 E24.83507
G1 X149.841 Y110.342 E24.86019
G1 X149.176 Y109.988 E24.88524
G1 X148.44 Y109.832 E24.91027
G1 X147.687 Y109.884 E24.93537
G1 X146.977 Y110.143 E24.96051
G1 X146.368 Y110.585 E24.98554
G1 X145.903 Y111.18 E25.01065
G1 X145.621 Y111.879 E25.03572
G1 X145.541 Y112.629 E25.06081
G1 X145.673 Y113.372 E25.08591
G1 X146.004 Y114.051 E25.11103
G1 X146.507 Y114.61 E25.13604
G1 X147.149 Y115.011 E25.16122
G0 F6000 X147.313 Y114.642
G1 F1200 X147.908 Y114.812 E25.1818
G1 X148.271 Y114.838 E25.19391
G1 X148.886 Y114.751 E25.21456
G1 X149.472 Y114.491 E25.23589
G1 X149.963 Y114.078 E25.25723
G1 X150.323 Y113.545 E25.27862
G1 X150.521 Y112.935 E25.29995
G1 X150.544 Y112.294 E25.32128
G1 X150.387 Y111.671 E25.34265
G1 X150.067 Y111.115 E25.36399
G1 X149.604 Y110.669 E25.38537
G1 X149.038 Y110.368 E25.40669
G1 X148.412 Y110.235 E25.42798
G1 X147.771 Y110.279 E25.44935
G1 X147.167 Y110.5 E25.47074
G1 X146.648 Y110.876 E25.49206
G1 X146.253 Y111.382 E25.51341
G1 X146.013 Y111.977 E25.53475
G1 X145.945 Y112.615 E25.55609
G1 X146.057 Y113.247 E25.57743
G1 X146.339 Y113.825 E25.59882
G1 X146.767 Y114.301 E25.62011
G1 X147.313 Y114.642 E25.64153
G0 F6000 X147.477 Y114.273
;TYPE:WALL-OUTER
G1 F1200 X147.978 Y114.416 E25.65885
G1 X148.257 Y114.436 E25.66816
G1 X148.775 Y114.363 E25.68556
G1 X149.258 Y114.148 E25.70314
G1 X149.663 Y113.808 E25.72073
G1 X149.96 Y113.368 E25.73839
G1 X150.123 Y112.865 E25.75597
G1 X150.142 Y112.336 E25.77358
G1 X150.013 Y111.822 E25.7912
G1 X149.749 Y111.364 E25.80879
G1 X149.367 Y110.996 E25.82643
G1 X148.9 Y110.748 E25.84401
G1 X148.383 Y110.638 E25.8616
G1 X147.855 Y110.674 E25.8792
G1 X147.357 Y110.856 E25.89683
G1 X146.929 Y111.167 E25.91443
G1 X146.603 Y111.584 E25.93203
G1 X146.405 Y112.075 E25.94964
G1 X146.349 Y112.601 E25.96724
G1 X146.441 Y113.122 E25.98483
G1 X146.674 Y113.599 E26.00249
G1 X147.027 Y113.992 E26.02006
G1 X147.477 Y114.273 E26.0377
G0 F6000 X147.299 Y114.675
G1 F2700 E21.0377
G0 F6000 X149.777 Y114.981
G0 X150.801 Y113.906
G0 X150.818 Y118.853
G0 X78.182 Y118.853
G0 X78.202 Y113.89
G0 X81.497 Y115.139
;TYPE:WALL-INNER
G1 F2700 E26.0377
G1 F1200 X82.186 Y114.834 E26.06277
G1 X82.763 Y114.348 E26.08786
G1 X83.186 Y113.722 E26.11299
G1 X83.419 Y113.005 E26.13806
G1 X83.446 Y112.251 E26.16316
G1 X83.261 Y111.52 E26.18824
G1 X82.885 Y110.866 E26.21333
G1 X82.341 Y110.342 E26.23845
G1 X81.676 Y109.988 E26.2635
G1 X80.94 Y109.832 E26.28853
G1 X80.187 Y109.884 E26.31363
G1 X79.477 Y110.143 E26.33877
G1 X78.868 Y110.585 E26.3638
G1 X78.403 Y111.18 E26.38891
G1 X78.388 Y111.216 E26.39021
G1 X78.12 Y111.879 E26.414
G1 X78.041 Y112.629 E26.43908
G1 X78.173 Y113.372 E26.46418
G1 X78.387 Y113.811 E26.48042
G1 X78.504 Y114.051 E26.4893
G1 X79.007 Y114.61 E26.51431
G1 X79.649 Y115.011 E26.53949
G1 X80.338 Y115.208 E26.56332
G1 X80.785 Y115.24 E26.57823
G1 X81.497 Y115.139 E26.60215
G0 F6000 X81.386 Y114.751
G1 F1200 X81.972 Y114.491 E26.62347
G1 X82.463 Y114.078 E26.64481
G1 X82.823 Y113.545 E26.6662
G1 X83.021 Y112.935 E26.68753
G1 X83.044 Y112.294 E26.70887
G1 X82.887 Y111.671 E26.73024
G1 X82.567 Y111.115 E26.75157
G1 X82.104 Y110.669 E26.77295
G1 X81.538 Y110.368 E26.79428
G1 X80.912 Y110.235 E26.81556
G1 X80.271 Y110.279 E26.83693
G1 X79.667 Y110.5 E26.85832
G1 X79.148 Y110.876 E26.87964
G1 X78.753 Y111.382 E26.90099
G1 X78.512 Y111.977 E26.92234
G1 X78.445 Y112.615 E26.94368
G1 X78.557 Y113.247 E26.96503
G1 X78.839 Y113.825 E26.98642
G1 X79.267 Y114.301 E27.00771
G1 X79.813 Y114.642 E27.02912
G1 X80.408 Y114.812 E27.0497
G1 X80.771 Y114.838 E27.0618
G1 X81.386 Y114.751 E27.08246
G0 F6000 X81.275 Y114.363
;TYPE:WALL-OUTER
G1 F1200 X81.758 Y114.148 E27.10005
G1 X82.163 Y113.808 E27.11763
G1 X82.46 Y113.368 E27.13529
G1 X82.623 Y112.865 E27.15288
G1 X82.642 Y112.336 E27.17048
G1 X82.513 Y111.822 E27.18811
G1 X82.249 Y111.364 E27.20569
G1 X81.867 Y110.996 E27.22333
G1 X81.4 Y110.748 E27.24092
G1 X80.883 Y110.638 E27.2585
G1 X80.355 Y110.674 E27.2761
G1 X79.857 Y110.856 E27.29374
G1 X79.429 Y111.167 E27.31133
G1 X79.103 Y111.584 E27.32894
G1 X78.904 Y112.075 E27.34656
G1 X78.849 Y112.601 E27.36415
G1 X78.941 Y113.122 E27.38175
G1 X79.174 Y113.599 E27.3994
G1 X79.527 Y113.992 E27.41697
G1 X79.977 Y114.273 E27.43462
G1 X80.478 Y114.416 E27.45195
G1 X80.757 Y114.436 E27.46125
G1 X81.275 Y114.363 E27.47865
G0 F6000 X81.396 Y114.785
G1 F2700 E22.47865
G0 F6000 X83.377 Y113.815
G0 X81.676 Y112.985
G0 X101.15 Y113.113
G0 X99.594 Y114.159
G0 X102.747 Y115.139
;TYPE:WALL-INNER
G1 F2700 E27.47865
G1 F1200 X103.436 Y114.834 E27.50371
G1 X104.013 Y114.348 E27.5288
G1 X104.436 Y113.722 E27.55393
G1 X104.669 Y113.005 E27.57901
G1 X104.696 Y112.251 E27.6041
G1 X104.511 Y111.52 E27.62918
G1 X104.135 Y110.866 E27.65427
G1 X103.591 Y110.342 E27.67939
G1 X102.926 Y109.988 E27.70445
G1 X102.19 Y109.832 E27.72947
G1 X101.437 Y109.884 E27.75458
G1 X100.727 Y110.143 E27.77972
G1 X100.118 Y110.585 E27.80474
G1 X99.653 Y111.18 E27.82986
G1 X99.37 Y111.879 E27.85494
G1 X99.291 Y112.629 E27.88002
G1 X99.423 Y113.372 E27.90512
G1 X99.754 Y114.051 E27.93025
G1 X100.257 Y114.61 E27.95526
G1 X100.899 Y115.011 E27.98044
G1 X101.588 Y115.208 E28.00427
G1 X102.035 Y115.24 E28.01918
G1 X102.747 Y115.139 E28.04309
G0 F6000 X102.636 Y114.751
G1 F1200 X103.222 Y114.491 E28.06442
G1 X103.713 Y114.078 E28.08576
G1 X104.073 Y113.545 E28.10715
G1 X104.271 Y112.935 E28.12848
G1 X104.294 Y112.294 E28.14981
G1 X104.137 Y111.671 E28.17118
G1 X103.817 Y111.115 E28.19252
G1 X103.354 Y110.669 E28.2139
G1 X102.788 Y110.368 E28.23522
G1 X102.162 Y110.235 E28.25651
G1 X101.521 Y110.279 E28.27788
G1 X100.917 Y110.5 E28.29927
G1 X100.398 Y110.876 E28.32059
G1 X100.003 Y111.382 E28.34194
G1 X99.762 Y111.977 E28.36329
G1 X99.695 Y112.615 E28.38462
G1 X99.807 Y113.247 E28.40597
G1 X100.089 Y113.825 E28.42736
G1 X100.517 Y114.301 E28.44865
G1 X101.063 Y114.642 E28.47006
G1 X101.658 Y114.812 E28.49064
G1 X102.021 Y114.838 E28.50275
G1 X102.636 Y114.751 E28.52341
G0 F6000 X102.525 Y114.363
;TYPE:WALL-OUTER
G1 F1200 X103.008 Y114.148 E28.54099
G1 X103.413 Y113.808 E28.55858
G1 X103.71 Y113.368 E28.57624
G1 X103.873 Y112.865 E28.59382
G1 X103.892 Y112.336 E28.61143
G1 X103.763 Y111.822 E28.62905
G1 X103.499 Y111.364 E28.64664
G1 X103.117 Y110.996 E28.66428
G1 X102.65 Y110.748 E28.68187
G1 X102.133 Y110.638 E28.69945
G1 X101.605 Y110.674 E28.71705
G1 X101.107 Y110.856 E28.73468
G1 X100.679 Y111.167 E28.75228
G1 X100.353 Y111.584 E28.76988
G1 X100.154 Y112.075 E28.78751
G1 X100.099 Y112.601 E28.8051
G1 X100.191 Y113.122 E28.82269
G1 X100.424 Y113.599 E28.84035
G1 X100.777 Y113.992 E28.85792
G1 X101.227 Y114.273 E28.87556
G1 X101.728 Y114.416 E28.89289
G1 X102.007 Y114.436 E28.9022
G1 X102.525 Y114.363 E28.9196
G0 F6000 X102.646 Y114.785
G1 F2700 E23.9196
G0 F6000 X104.61 Y113.807
G0 X102.926 Y112.985
G0 X122.65 Y113.113
