;FLAVOR:Marlin
;TIME:3176
;Filament used: 3.2935m
;Layer height: 0.3
;MINX:86.06
;MINY:76.701
;MINZ:0.2
;MAXX:148.94
;MAXY:139.581
;MAXZ:14
;Generated with Cura_SteamEngine 4.8.0
M140 S50
M105
M190 S50
M104 S200
M105
M109 S200
M82 ;absolute extrusion mode
; Ender 3 Custom Start G-code
G92 E0 ; Reset Extruder
G28 ; Home all axes
G1 Z2.0 F3000 ; Move Z Axis up little to prevent scratching of Heat Bed
G1 X0.1 Y20 Z0.3 F5000.0 ; Move to start position
G1 X0.1 Y200.0 Z0.3 F1500.0 E15 ; Draw the first line
G1 X0.4 Y200.0 Z0.3 F5000.0 ; Move to side a little
G1 X0.4 Y20 Z0.3 F1500.0 E30 ; Draw the second line
G92 E0 ; Reset Extruder
G1 Z2.0 F3000 ; Move Z Axis up little to prevent scratching of Heat Bed
G1 X5 Y20 Z0.3 F5000.0 ; Move over to prevent blob squish
G92 E0
G92 E0
G1 F2700 E-5
;LAYER_COUNT:47
;LAYER:0
M107
G0 F6000 X94.312 Y86.692 Z0.2
;TYPE:SKIRT
G1 F2700 E0
G1 F1200 X94.538 Y86.446 E0.01111
G1 X94.765 Y86.206 E0.0221
G1 X95.127 Y85.835 E0.03934
G1 X95.321 Y85.641 E0.04846
G1 X95.561 Y85.407 E0.05961
G1 X95.759 Y85.219 E0.06869
G1 X95.994 Y85.001 E0.07935
G1 X96.708 Y84.393 E0.11055
G1 X97.229 Y84.01 E0.13205
G1 X97.357 Y83.922 E0.13722
G1 X99.457 Y82.421 E0.22307
G1 X100.56 Y81.589 E0.26903
G1 X100.928 Y81.319 E0.28421
G1 X102.032 Y80.606 E0.32792
G1 X102.58 Y80.297 E0.34884
G1 X102.988 Y80.078 E0.36424
G1 X103.261 Y79.938 E0.37445
G1 X103.739 Y79.703 E0.39216
G1 X103.974 Y79.591 E0.40082
G1 X104.201 Y79.486 E0.40914
G1 X105.068 Y79.129 E0.44033
G1 X105.527 Y78.974 E0.45644
G1 X108.036 Y78.187 E0.5439
G1 X109.58 Y77.657 E0.59819
G1 X110.031 Y77.509 E0.61398
G1 X111.295 Y77.176 E0.65746
G1 X112.012 Y77.032 E0.68178
G1 X112.605 Y76.93 E0.70179
G1 X113.235 Y76.839 E0.72296
G1 X113.529 Y76.801 E0.73282
G1 X113.734 Y76.777 E0.73969
G1 X115.013 Y76.702 E0.7823
G1 X115.33 Y76.703 E0.79284
G1 X117.637 Y76.731 E0.86958
G1 X119.449 Y76.702 E0.92986
G1 X119.946 Y76.701 E0.94639
G1 X121.211 Y76.774 E0.98853
G1 X121.686 Y76.829 E1.00443
G1 X122.007 Y76.871 E1.0152
G1 X122.497 Y76.945 E1.03168
G1 X122.884 Y77.01 E1.04474
G1 X123.178 Y77.063 E1.05467
G1 X123.581 Y77.142 E1.06833
G1 X124.493 Y77.362 E1.09954
G1 X125.077 Y77.547 E1.11991
G1 X125.594 Y77.727 E1.13812
G1 X128.047 Y78.537 E1.22404
G1 X129.218 Y78.893 E1.26475
G1 X129.542 Y78.996 E1.27605
G1 X130.721 Y79.456 E1.31815
G1 X131.234 Y79.691 E1.33691
G1 X131.744 Y79.941 E1.3558
G1 X132.445 Y80.307 E1.38211
G1 X132.769 Y80.483 E1.39437
G1 X132.914 Y80.565 E1.39991
G1 X133.71 Y81.061 E1.43111
G1 X134.112 Y81.35 E1.44757
G1 X134.818 Y81.881 E1.47695
G1 X136.912 Y83.41 E1.56319
G1 X137.737 Y83.985 E1.59664
G1 X138.032 Y84.197 E1.60872
G1 X138.932 Y84.937 E1.64747
G1 X139.167 Y85.152 E1.65807
G1 X139.427 Y85.398 E1.66997
G1 X139.809 Y85.771 E1.68773
G1 X140 Y85.962 E1.69671
G1 X140.234 Y86.202 E1.70786
G1 X140.422 Y86.4 E1.71694
G1 X140.64 Y86.635 E1.72761
G1 X141.248 Y87.349 E1.7588
G1 X141.631 Y87.87 E1.7803
G1 X141.719 Y87.998 E1.78547
G1 X143.22 Y90.098 E1.87132
G1 X144.053 Y91.203 E1.91735
G1 X144.328 Y91.578 E1.93282
G1 X145.034 Y92.67 E1.97607
G1 X145.32 Y93.176 E1.9954
G1 X145.514 Y93.535 E2.00897
G1 X145.67 Y93.841 E2.02039
G1 X145.954 Y94.417 E2.04175
G1 X146.074 Y94.668 E2.05101
G1 X146.159 Y94.852 E2.05775
G1 X146.516 Y95.719 E2.08893
G1 X146.671 Y96.18 E2.10511
G1 X147.432 Y98.612 E2.18987
G1 X148.028 Y100.355 E2.25113
G1 X148.149 Y100.727 E2.26415
G1 X148.468 Y101.938 E2.3058
G1 X148.582 Y102.499 E2.32484
G1 X148.658 Y102.914 E2.33887
G1 X148.711 Y103.247 E2.35009
G1 X148.805 Y103.902 E2.37209
G1 X148.899 Y104.831 E2.40315
G1 X148.921 Y105.212 E2.41584
G1 X148.938 Y105.983 E2.44149
G1 X148.91 Y108.248 E2.51683
G1 X148.938 Y109.969 E2.57408
G1 X148.94 Y110.541 E2.59311
G1 X148.87 Y111.82 E2.63571
G1 X148.823 Y112.234 E2.64957
G1 X148.776 Y112.592 E2.66158
G1 X148.709 Y113.048 E2.67691
G1 X148.669 Y113.303 E2.68549
G1 X148.616 Y113.613 E2.69595
G1 X148.558 Y113.922 E2.70641
G1 X148.491 Y114.256 E2.71774
G1 X148.135 Y115.59 E2.76366
G1 X147.239 Y118.263 E2.85743
G1 X146.788 Y119.739 E2.90876
G1 X146.641 Y120.194 E2.92466
G1 X146.194 Y121.345 E2.96573
G1 X146.067 Y121.624 E2.97593
G1 X145.927 Y121.919 E2.98679
G1 X145.668 Y122.446 E3.00632
G1 X145.537 Y122.705 E3.01597
G1 X145.399 Y122.968 E3.02585
G1 X145.271 Y123.205 E3.03481
G1 X145.113 Y123.489 E3.04562
G1 X144.622 Y124.288 E3.07681
G1 X144.276 Y124.773 E3.09663
G1 X144.046 Y125.078 E3.10933
G1 X142.493 Y127.184 E3.19636
G1 X141.645 Y128.395 E3.24553
G1 X141.476 Y128.63 E3.25516
G1 X140.679 Y129.602 E3.29697
G1 X140.413 Y129.891 E3.31003
G1 X140.193 Y130.123 E3.32067
G1 X139.994 Y130.327 E3.33014
G1 X139.816 Y130.505 E3.33852
G1 X139.333 Y130.978 E3.361
G1 X138.855 Y131.42 E3.38266
G1 X138.74 Y131.52 E3.38772
G1 X137.807 Y132.246 E3.42704
G1 X137.522 Y132.445 E3.43861
G1 X135.377 Y133.984 E3.52641
G1 X134.4 Y134.722 E3.56714
G1 X134.07 Y134.964 E3.58075
G1 X132.969 Y135.675 E3.62434
G1 X132.375 Y136.01 E3.64702
G1 X131.866 Y136.28 E3.66618
G1 X131.371 Y136.526 E3.68457
G1 X131.096 Y136.658 E3.69471
G1 X130.8 Y136.795 E3.70556
G1 X129.933 Y137.152 E3.73675
G1 X129.368 Y137.34 E3.75655
G1 X129.117 Y137.416 E3.76528
G1 X126.569 Y138.225 E3.85419
G1 X125.392 Y138.632 E3.89561
G1 X124.913 Y138.79 E3.91239
G1 X123.707 Y139.108 E3.95387
G1 X123.162 Y139.219 E3.97237
G1 X122.786 Y139.289 E3.98509
G1 X122.367 Y139.356 E3.9992
G1 X121.765 Y139.443 E4.01943
G1 X121.459 Y139.483 E4.0297
G1 X121.252 Y139.507 E4.03663
G1 X119.985 Y139.58 E4.07884
G1 X119.658 Y139.579 E4.08972
G1 X117.393 Y139.551 E4.16506
G1 X115.672 Y139.579 E4.2223
G1 X115.1 Y139.581 E4.24133
G1 X113.821 Y139.511 E4.28393
G1 X113.407 Y139.464 E4.29779
G1 X113.049 Y139.417 E4.3098
G1 X112.593 Y139.35 E4.32513
G1 X112.338 Y139.31 E4.33372
G1 X112.028 Y139.257 E4.34418
G1 X111.719 Y139.199 E4.35463
G1 X111.38 Y139.131 E4.36613
G1 X110.469 Y138.908 E4.39733
G1 X109.886 Y138.72 E4.4177
G1 X107.319 Y137.86 E4.50774
G1 X105.797 Y137.394 E4.56068
G1 X105.46 Y137.286 E4.57245
G1 X104.279 Y136.826 E4.61461
G1 X103.766 Y136.591 E4.63338
G1 X103.256 Y136.341 E4.65227
G1 X102.555 Y135.975 E4.67857
G1 X102.216 Y135.791 E4.6914
G1 X102.068 Y135.707 E4.69706
G1 X101.273 Y135.209 E4.72826
G1 X100.883 Y134.929 E4.74423
G1 X100.158 Y134.384 E4.7744
G1 X98.116 Y132.892 E4.85851
G1 X97.261 Y132.297 E4.89316
G1 X96.893 Y132.029 E4.9083
G1 X96.068 Y131.345 E4.94394
G1 X95.833 Y131.13 E4.95454
G1 X95.573 Y130.884 E4.96644
G1 X95.191 Y130.511 E4.9842
G1 X95.002 Y130.322 E4.99309
G1 X94.764 Y130.078 E5.00442
G1 X94.535 Y129.836 E5.01551
G1 X94.322 Y129.604 E5.02598
G1 X93.718 Y128.887 E5.05716
G1 X93.409 Y128.467 E5.07451
G1 X93.299 Y128.31 E5.08088
G1 X91.78 Y126.184 E5.16779
G1 X90.951 Y125.085 E5.21357
G1 X90.68 Y124.716 E5.2288
G1 X89.961 Y123.602 E5.2729
G1 X89.653 Y123.055 E5.29378
G1 X89.468 Y122.713 E5.30671
G1 X89.328 Y122.438 E5.31697
G1 X89.032 Y121.836 E5.33929
G1 X88.658 Y120.987 E5.37014
G1 X88.529 Y120.657 E5.38193
G1 X88.273 Y119.926 E5.40769
G1 X87.589 Y117.732 E5.48413
G1 X87.039 Y116.128 E5.54052
G1 X86.854 Y115.562 E5.56033
G1 X86.533 Y114.348 E5.60209
G1 X86.422 Y113.803 E5.62059
G1 X86.352 Y113.427 E5.63331
G1 X86.285 Y113.008 E5.64743
G1 X86.198 Y112.406 E5.66766
G1 X86.16 Y112.118 E5.67732
G1 X86.136 Y111.914 E5.68415
G1 X86.061 Y110.629 E5.72696
G1 X86.062 Y110.299 E5.73794
G1 X86.09 Y108.023 E5.81365
G1 X86.062 Y106.313 E5.87053
G1 X86.06 Y105.741 E5.88955
G1 X86.13 Y104.462 E5.93216
G1 X86.176 Y104.057 E5.94571
G1 X86.223 Y103.7 E5.95769
G1 X86.291 Y103.237 E5.97325
G1 X86.334 Y102.967 E5.98235
G1 X86.395 Y102.613 E5.99429
G1 X86.453 Y102.302 E6.00482
G1 X86.512 Y102.01 E6.01473
G1 X86.866 Y100.688 E6.06024
G1 X87.771 Y97.992 E6.15483
G1 X88.304 Y96.254 E6.21529
G1 X88.36 Y96.082 E6.22131
G1 X88.832 Y94.879 E6.26429
G1 X89.011 Y94.491 E6.2785
G1 X89.125 Y94.251 E6.28734
G1 X89.288 Y93.919 E6.29964
G1 X89.418 Y93.663 E6.30919
G1 X89.605 Y93.306 E6.3226
G1 X89.748 Y93.041 E6.33261
G1 X89.899 Y92.771 E6.3429
G1 X90.392 Y91.972 E6.37413
G1 X90.76 Y91.461 E6.39507
G1 X90.889 Y91.292 E6.40214
G1 X92.437 Y89.197 E6.48878
G1 X93.35 Y87.895 E6.54167
G1 X93.531 Y87.644 E6.55196
G1 X94.312 Y86.692 E6.59292
G0 F6000 X94.606 Y86.963
G1 F1200 X94.832 Y86.717 E6.60403
G1 X95.051 Y86.485 E6.61464
G1 X95.413 Y86.114 E6.63188
G1 X95.6 Y85.927 E6.64068
G1 X95.84 Y85.693 E6.65183
G1 X96.031 Y85.512 E6.66058
G1 X96.266 Y85.294 E6.67124
G1 X96.968 Y84.698 E6.70187
G1 X97.456 Y84.34 E6.722
G1 X97.555 Y84.272 E6.72599
G1 X99.692 Y82.745 E6.81335
G1 X100.797 Y81.912 E6.85938
G1 X101.165 Y81.642 E6.87456
G1 X102.229 Y80.955 E6.91668
G1 X102.777 Y80.646 E6.93761
G1 X103.043 Y80.5 E6.9477
G1 X103.437 Y80.297 E6.96244
G1 X103.915 Y80.062 E6.98016
G1 X104.369 Y79.849 E6.99684
G1 X105.646 Y79.356 E7.04236
G1 X108.192 Y78.557 E7.13112
G1 X109.705 Y78.037 E7.18433
G1 X110.156 Y77.889 E7.20012
G1 X111.374 Y77.569 E7.242
G1 X112.091 Y77.425 E7.26632
G1 X112.663 Y77.326 E7.28563
G1 X113.293 Y77.235 E7.3068
G1 X113.575 Y77.198 E7.31626
G1 X113.78 Y77.174 E7.32313
G1 X115.013 Y77.102 E7.36421
G1 X115.325 Y77.103 E7.37459
G1 X117.638 Y77.131 E7.45152
G1 X119.455 Y77.102 E7.51196
G1 X119.946 Y77.101 E7.52829
G1 X121.165 Y77.171 E7.5689
G1 X121.64 Y77.226 E7.58481
G1 X121.949 Y77.267 E7.59518
G1 X122.431 Y77.339 E7.61139
G1 X122.818 Y77.404 E7.62444
G1 X123.101 Y77.456 E7.63401
G1 X123.504 Y77.535 E7.64767
G1 X124.399 Y77.751 E7.67829
G1 X124.945 Y77.925 E7.69735
G1 X125.444 Y78.098 E7.71491
G1 X127.932 Y78.92 E7.80207
G1 X129.102 Y79.276 E7.84274
G1 X129.418 Y79.377 E7.85378
G1 X130.555 Y79.82 E7.89436
G1 X131.068 Y80.055 E7.91313
G1 X131.559 Y80.296 E7.93132
G1 X132.26 Y80.662 E7.95762
G1 X132.572 Y80.831 E7.96942
G1 X132.717 Y80.913 E7.97496
G1 X133.872 Y81.669 E8.02088
G1 X134.594 Y82.212 E8.05092
G1 X136.701 Y83.751 E8.13771
G1 X137.508 Y84.313 E8.17042
G1 X137.795 Y84.519 E8.18217
G1 X138.662 Y85.232 E8.2195
G1 X138.897 Y85.447 E8.2301
G1 X139.147 Y85.684 E8.24155
G1 X139.529 Y86.057 E8.25931
G1 X139.714 Y86.241 E8.26799
G1 X139.948 Y86.481 E8.27914
G1 X140.129 Y86.672 E8.28789
G1 X140.347 Y86.907 E8.29855
G1 X140.943 Y87.609 E8.32918
G1 X141.301 Y88.097 E8.34931
G1 X141.369 Y88.196 E8.3533
G1 X142.896 Y90.333 E8.44066
G1 X143.731 Y91.44 E8.48678
G1 X144.006 Y91.815 E8.50225
G1 X144.686 Y92.867 E8.54391
G1 X144.972 Y93.373 E8.56324
G1 X145.159 Y93.719 E8.57632
G1 X145.311 Y94.017 E8.58745
G1 X145.595 Y94.593 E8.60881
G1 X145.711 Y94.836 E8.61777
G1 X145.796 Y95.02 E8.62451
G1 X146.289 Y96.3 E8.67013
G1 X147.044 Y98.713 E8.75422
G1 X147.595 Y100.321 E8.81076
G1 X147.768 Y100.85 E8.82927
G1 X148.076 Y102.018 E8.86944
G1 X148.19 Y102.579 E8.88848
G1 X148.264 Y102.983 E8.90215
G1 X148.316 Y103.304 E8.91296
G1 X148.41 Y103.959 E8.93497
G1 X148.499 Y104.854 E8.96488
G1 X148.521 Y105.235 E8.97758
G1 X148.538 Y105.978 E9.0023
G1 X148.51 Y108.199 E9.07617
G1 X148.538 Y109.97 E9.13508
G1 X148.54 Y110.542 E9.15411
G1 X148.472 Y111.775 E9.19518
G1 X148.425 Y112.189 E9.20904
G1 X148.38 Y112.534 E9.22061
G1 X148.313 Y112.99 E9.23594
G1 X148.274 Y113.235 E9.24419
G1 X148.221 Y113.545 E9.25465
G1 X148.166 Y113.844 E9.26476
G1 X148.099 Y114.178 E9.27609
G1 X147.756 Y115.463 E9.32033
G1 X146.849 Y118.168 E9.41522
G1 X146.405 Y119.622 E9.46579
G1 X146.261 Y120.07 E9.48144
G1 X145.83 Y121.18 E9.52104
G1 X145.703 Y121.459 E9.53124
G1 X145.568 Y121.742 E9.54167
G1 X145.309 Y122.269 E9.5612
G1 X145.182 Y122.519 E9.57052
G1 X145.044 Y122.782 E9.5804
G1 X144.921 Y123.01 E9.58902
G1 X144.763 Y123.294 E9.59983
G1 X144.281 Y124.079 E9.63047
G1 X143.957 Y124.532 E9.64899
G1 X143.691 Y124.884 E9.66366
G1 X142.178 Y126.938 E9.74851
G1 X141.317 Y128.166 E9.7984
G1 X141.152 Y128.395 E9.80778
G1 X140.384 Y129.332 E9.84808
G1 X140.118 Y129.621 E9.86114
G1 X139.907 Y129.844 E9.87135
G1 X139.708 Y130.048 E9.88083
G1 X139.537 Y130.219 E9.88888
G1 X139.054 Y130.692 E9.91136
G1 X138.592 Y131.118 E9.93226
G1 X138.477 Y131.218 E9.93733
G1 X137.579 Y131.918 E9.9752
G1 X137.266 Y132.136 E9.98789
G1 X135.143 Y133.66 E10.07481
G1 X134.163 Y134.4 E10.11565
G1 X133.833 Y134.642 E10.12926
G1 X132.772 Y135.327 E10.17127
G1 X132.178 Y135.662 E10.19395
G1 X131.688 Y135.921 E10.21238
G1 X131.193 Y136.167 E10.23077
G1 X130.928 Y136.295 E10.24056
G1 X130.632 Y136.432 E10.25141
G1 X129.781 Y136.782 E10.28201
G1 X129.252 Y136.957 E10.30054
G1 X128.96 Y137.045 E10.31069
G1 X126.466 Y137.837 E10.39772
G1 X125.072 Y138.318 E10.44677
G1 X124.789 Y138.41 E10.45666
G1 X123.627 Y138.716 E10.49663
G1 X123.082 Y138.827 E10.51513
G1 X122.719 Y138.894 E10.52741
G1 X122.31 Y138.96 E10.54118
G1 X121.708 Y139.047 E10.56142
G1 X121.413 Y139.085 E10.57131
G1 X121.206 Y139.109 E10.57824
G1 X119.985 Y139.18 E10.61892
G1 X119.663 Y139.179 E10.62963
G1 X117.426 Y139.151 E10.70404
G1 X115.671 Y139.179 E10.76242
G1 X115.099 Y139.181 E10.78144
G1 X113.866 Y139.113 E10.82251
G1 X113.452 Y139.066 E10.83637
G1 X113.107 Y139.021 E10.84794
G1 X112.651 Y138.954 E10.86327
G1 X112.406 Y138.915 E10.87152
G1 X112.096 Y138.862 E10.88198
G1 X111.797 Y138.807 E10.8921
G1 X111.458 Y138.739 E10.9036
G1 X110.564 Y138.519 E10.93422
G1 X110.013 Y138.341 E10.95348
G1 X107.448 Y137.482 E11.04345
G1 X105.914 Y137.012 E11.09681
G1 X105.584 Y136.906 E11.10834
G1 X104.445 Y136.462 E11.149
G1 X103.932 Y136.227 E11.16776
G1 X103.441 Y135.986 E11.18595
G1 X102.74 Y135.62 E11.21226
G1 X102.414 Y135.443 E11.22459
G1 X102.266 Y135.359 E11.23025
G1 X101.124 Y134.609 E11.2757
G1 X100.461 Y134.11 E11.3033
G1 X98.298 Y132.531 E11.39237
G1 X97.49 Y131.968 E11.42512
G1 X97.133 Y131.709 E11.43979
G1 X96.338 Y131.05 E11.47414
G1 X96.103 Y130.835 E11.48473
G1 X95.853 Y130.598 E11.49619
G1 X95.471 Y130.225 E11.51395
G1 X95.288 Y130.042 E11.52255
G1 X95.05 Y129.798 E11.53389
G1 X94.83 Y129.566 E11.54452
G1 X94.617 Y129.334 E11.555
G1 X94.024 Y128.629 E11.58564
G1 X93.737 Y128.237 E11.6018
G1 X92.104 Y125.949 E11.69529
G1 X91.274 Y124.848 E11.74115
G1 X91.003 Y124.479 E11.75638
G1 X90.31 Y123.406 E11.79886
G1 X90.002 Y122.859 E11.81974
G1 X89.822 Y122.526 E11.83233
G1 X89.687 Y122.261 E11.84222
G1 X89.391 Y121.659 E11.86454
G1 X89.031 Y120.841 E11.89426
G1 X88.902 Y120.511 E11.90605
G1 X88.655 Y119.807 E11.93086
G1 X87.966 Y117.599 E12.00779
G1 X87.367 Y115.846 E12.06941
G1 X87.234 Y115.438 E12.08368
G1 X86.925 Y114.268 E12.12393
G1 X86.814 Y113.723 E12.14243
G1 X86.747 Y113.36 E12.1547
G1 X86.681 Y112.951 E12.16848
G1 X86.594 Y112.349 E12.18871
G1 X86.558 Y112.072 E12.198
G1 X86.534 Y111.868 E12.20484
G1 X86.461 Y110.629 E12.24612
G1 X86.462 Y110.304 E12.25693
G1 X86.49 Y108.067 E12.33134
G1 X86.462 Y106.312 E12.38971
G1 X86.46 Y105.74 E12.40874
G1 X86.528 Y104.507 E12.44981
G1 X86.574 Y104.102 E12.46337
G1 X86.619 Y103.758 E12.47491
G1 X86.687 Y103.295 E12.49047
G1 X86.728 Y103.035 E12.49923
G1 X86.789 Y102.681 E12.51117
G1 X86.845 Y102.382 E12.52129
G1 X86.904 Y102.09 E12.5312
G1 X87.245 Y100.816 E12.57507
G1 X88.146 Y98.132 E12.66923
G1 X88.628 Y96.557 E12.72401
G1 X88.741 Y96.205 E12.73631
G1 X89.195 Y95.047 E12.77768
G1 X89.374 Y94.659 E12.79189
G1 X89.484 Y94.427 E12.80043
G1 X89.647 Y94.095 E12.81273
G1 X89.772 Y93.849 E12.82191
G1 X89.959 Y93.492 E12.83531
G1 X90.098 Y93.236 E12.845
G1 X90.249 Y92.966 E12.85529
G1 X90.732 Y92.183 E12.88589
G1 X91.078 Y91.704 E12.90554
G1 X91.2 Y91.545 E12.91221
G1 X92.733 Y89.47 E12.99802
G1 X93.677 Y88.124 E13.0527
G1 X93.854 Y87.88 E13.06272
G1 X94.606 Y86.963 E13.10217
G0 F6000 X94.901 Y87.233
G1 F1200 X95.127 Y86.987 E13.11328
G1 X95.338 Y86.765 E13.12346
G1 X95.7 Y86.394 E13.14071
G1 X95.879 Y86.214 E13.14915
G1 X96.119 Y85.98 E13.1603
G1 X96.303 Y85.805 E13.16874
G1 X96.538 Y85.587 E13.1794
G1 X97.227 Y85.003 E13.20944
G1 X97.683 Y84.669 E13.22824
G1 X97.805 Y84.585 E13.23317
G1 X99.919 Y83.075 E13.31958
G1 X101.033 Y82.234 E13.366
G1 X101.401 Y81.964 E13.38118
G1 X102.425 Y81.303 E13.42172
G1 X102.973 Y80.994 E13.44265
G1 X103.361 Y80.785 E13.4573
G1 X103.614 Y80.656 E13.46675
G1 X104.092 Y80.421 E13.48446
G1 X104.31 Y80.317 E13.4925
G1 X104.537 Y80.212 E13.50082
G1 X105.766 Y79.738 E13.54463
G1 X108.294 Y78.945 E13.63275
