;FLAVOR:Marlin
;TIME:3274
;Filament used: 2.91278m
;Layer height: 0.3
;MINX:94
;MINY:112.308
;MINZ:0.2
;MAXX:133.017
;MAXY:154.308
;MAXZ:29.9
;Generated with Cura_SteamEngine 4.8.0
M140 S50
M105
M190 S50
M104 S200
M105
M109 S200
M82 ;absolute extrusion mode
; Ender 3 Custom Start G-code
G92 E0 ; Reset Extruder
G28 ; Home all axes
G1 Z2.0 F3000 ; Move Z Axis up little to prevent scratching of Heat Bed
G1 X0.1 Y20 Z0.3 F5000.0 ; Move to start position
G1 X0.1 Y200.0 Z0.3 F1500.0 E15 ; Draw the first line
G1 X0.4 Y200.0 Z0.3 F5000.0 ; Move to side a little
G1 X0.4 Y20 Z0.3 F1500.0 E30 ; Draw the second line
G92 E0 ; Reset Extruder
G1 Z2.0 F3000 ; Move Z Axis up little to prevent scratching of Heat Bed
G1 X5 Y20 Z0.3 F5000.0 ; Move over to prevent blob squish
G92 E0
G92 E0
G1 F2700 E-5
;LAYER_COUNT:100
;LAYER:0
M107
G0 F6000 X97.899 Y114.924 Z0.2
;TYPE:SKIRT
G1 F2700 E0
G1 F1200 X98.64 Y114.349 E0.0312
G1 X99.427 Y113.839 E0.06239
G1 X100.255 Y113.398 E0.09359
G1 X101.117 Y113.029 E0.12478
G1 X102.008 Y112.735 E0.15598
G1 X102.92 Y112.517 E0.18717
G1 X103.847 Y112.379 E0.21834
G1 X104.701 Y112.321 E0.24681
G1 X105.021 Y112.312 E0.25746
G1 X105.33 Y112.308 E0.26774
G1 X121.31 Y112.308 E0.79923
G1 X122.166 Y112.319 E0.82771
G1 X123.102 Y112.373 E0.85889
G1 X124.03 Y112.505 E0.89007
G1 X124.944 Y112.717 E0.92127
G1 X125.836 Y113.006 E0.95246
G1 X126.701 Y113.369 E0.98366
G1 X127.531 Y113.805 E1.01484
G1 X128.322 Y114.31 E1.04606
G1 X129.066 Y114.881 E1.07725
G1 X129.759 Y115.513 E1.10844
G1 X130.396 Y116.201 E1.13963
G1 X130.971 Y116.942 E1.17083
G1 X131.482 Y117.728 E1.20201
G1 X131.924 Y118.556 E1.23322
G1 X132.293 Y119.418 E1.26441
G1 X132.588 Y120.308 E1.2956
G1 X132.806 Y121.22 E1.32678
G1 X132.946 Y122.148 E1.358
G1 X133.004 Y123.01 E1.38673
G1 X133.013 Y123.331 E1.39741
G1 X133.017 Y123.636 E1.40756
G1 X133.017 Y127.798 E1.54599
G1 X133.008 Y128.441 E1.56738
G1 X132.999 Y128.749 E1.57763
G1 X132.97 Y129.439 E1.60059
G1 X132.896 Y132.087 E1.6887
G1 X132.896 Y134.611 E1.77265
G1 X132.968 Y137.128 E1.8564
G1 X132.985 Y137.464 E1.86759
G1 X132.994 Y137.699 E1.87541
G1 X133.012 Y138.323 E1.89618
G1 X133.017 Y138.637 E1.90662
G1 X133.017 Y142.76 E2.04375
G1 X133.008 Y143.443 E2.06647
G1 X132.956 Y144.379 E2.09765
G1 X132.824 Y145.308 E2.12886
G1 X132.613 Y146.222 E2.16006
G1 X132.326 Y147.115 E2.19126
G1 X131.963 Y147.979 E2.22243
G1 X131.528 Y148.81 E2.25362
G1 X131.024 Y149.601 E2.28482
G1 X130.454 Y150.346 E2.31602
G1 X129.823 Y151.04 E2.34721
G1 X129.135 Y151.677 E2.3784
G1 X128.396 Y152.254 E2.40958
G1 X127.609 Y152.766 E2.44081
G1 X126.783 Y153.208 E2.47197
G1 X125.921 Y153.579 E2.50318
G1 X125.031 Y153.875 E2.53438
G1 X124.119 Y154.094 E2.56557
G1 X123.192 Y154.234 E2.59676
G1 X122.292 Y154.294 E2.62676
G1 X121.903 Y154.304 E2.6397
G1 X121.62 Y154.308 E2.64911
G1 X105.565 Y154.307 E3.1831
G1 X104.867 Y154.298 E3.20632
G1 X103.931 Y154.246 E3.2375
G1 X103.002 Y154.114 E3.26871
G1 X102.088 Y153.904 E3.2999
G1 X101.195 Y153.617 E3.3311
G1 X100.33 Y153.254 E3.3623
G1 X99.499 Y152.82 E3.39348
G1 X98.708 Y152.316 E3.42468
G1 X97.963 Y151.746 E3.45588
G1 X97.269 Y151.115 E3.48707
G1 X96.632 Y150.428 E3.51823
G1 X96.055 Y149.688 E3.54944
G1 X95.543 Y148.902 E3.58064
G1 X95.1 Y148.075 E3.61185
G1 X94.729 Y147.214 E3.64303
G1 X94.433 Y146.324 E3.67423
G1 X94.214 Y145.412 E3.70542
G1 X94.073 Y144.485 E3.73661
G1 X94.013 Y143.596 E3.76624
G1 X94.004 Y143.263 E3.77732
G1 X94 Y142.966 E3.7872
G1 X94.001 Y123.817 E4.4241
G1 X94.011 Y123.152 E4.44622
G1 X94.065 Y122.215 E4.47744
G1 X94.199 Y121.287 E4.50862
G1 X94.411 Y120.373 E4.53983
G1 X94.7 Y119.481 E4.57102
G1 X95.065 Y118.617 E4.60221
G1 X95.501 Y117.787 E4.6334
G1 X96.007 Y116.997 E4.6646
G1 X96.578 Y116.253 E4.69579
G1 X97.21 Y115.56 E4.72699
G1 X97.899 Y114.924 E4.75817
G0 F6000 X98.288 Y115.121
G1 F1200 X99.024 Y114.569 E4.78877
G1 X99.806 Y114.082 E4.81941
G1 X100.627 Y113.666 E4.85003
G1 X101.481 Y113.322 E4.88065
G1 X102.361 Y113.053 E4.91125
G1 X103.262 Y112.862 E4.94189
G1 X104.176 Y112.75 E4.97251
G1 X104.712 Y112.721 E4.99037
G1 X105.032 Y112.712 E5.00102
G1 X105.33 Y112.708 E5.01093
G1 X121.31 Y112.708 E5.54242
G1 X122.16 Y112.719 E5.5707
G1 X123.079 Y112.772 E5.60132
G1 X123.99 Y112.905 E5.63194
G1 X124.886 Y113.116 E5.66255
G1 X125.76 Y113.404 E5.69316
G1 X126.607 Y113.767 E5.72381
G1 X127.418 Y114.202 E5.75442
G1 X128.188 Y114.706 E5.78503
G1 X128.912 Y115.275 E5.81565
G1 X129.584 Y115.905 E5.84629
G1 X130.199 Y116.59 E5.87691
G1 X130.752 Y117.326 E5.90753
G1 X131.239 Y118.107 E5.93814
G1 X131.656 Y118.928 E5.96877
G1 X132.001 Y119.782 E5.9994
G1 X132.27 Y120.662 E6.03001
G1 X132.462 Y121.563 E6.06065
G1 X132.575 Y122.476 E6.09125
G1 X132.604 Y123.021 E6.1094
G1 X132.613 Y123.342 E6.12008
G1 X132.617 Y123.636 E6.12986
G1 X132.617 Y127.792 E6.26809
G1 X132.608 Y128.435 E6.28948
G1 X132.6 Y128.733 E6.29939
G1 X132.568 Y129.484 E6.32439
G1 X132.496 Y132.076 E6.41064
G1 X132.496 Y134.588 E6.49419
G1 X132.57 Y137.16 E6.57977
G1 X132.595 Y137.71 E6.59808
G1 X132.613 Y138.334 E6.61884
G1 X132.617 Y138.637 E6.62892
G1 X132.617 Y142.755 E6.76588
G1 X132.608 Y143.438 E6.7886
G1 X132.556 Y144.357 E6.81922
G1 X132.424 Y145.268 E6.84983
G1 X132.214 Y146.164 E6.88044
G1 X131.927 Y147.039 E6.91107
G1 X131.565 Y147.886 E6.94171
G1 X131.131 Y148.697 E6.9723
G1 X130.628 Y149.469 E7.00295
G1 X130.06 Y150.193 E7.03355
G1 X129.431 Y150.866 E7.06419
G1 X128.747 Y151.481 E7.09479
G1 X128.011 Y152.035 E7.12543
G1 X127.23 Y152.523 E7.15606
G1 X126.41 Y152.941 E7.18667
G1 X125.557 Y153.287 E7.21728
G1 X124.677 Y153.557 E7.2479
G1 X123.776 Y153.75 E7.27855
G1 X122.863 Y153.864 E7.30915
G1 X122.281 Y153.894 E7.32853
G1 X121.892 Y153.904 E7.34147
G1 X121.62 Y153.908 E7.35052
G1 X105.57 Y153.907 E7.88435
G1 X104.872 Y153.898 E7.90757
G1 X103.953 Y153.846 E7.93818
G1 X103.042 Y153.715 E7.96879
G1 X102.146 Y153.505 E7.9994
G1 X101.271 Y153.218 E8.03003
G1 X100.424 Y152.856 E8.06067
G1 X99.612 Y152.422 E8.09129
G1 X98.841 Y151.92 E8.12189
G1 X98.116 Y151.352 E8.15252
G1 X97.443 Y150.723 E8.18316
G1 X96.828 Y150.039 E8.21375
G1 X96.274 Y149.304 E8.24437
G1 X95.786 Y148.523 E8.275
G1 X95.367 Y147.703 E8.30562
G1 X95.021 Y146.85 E8.33624
G1 X94.751 Y145.97 E8.36685
G1 X94.558 Y145.069 E8.3975
G1 X94.444 Y144.156 E8.4281
G1 X94.413 Y143.585 E8.44712
G1 X94.404 Y143.252 E8.4582
G1 X94.4 Y142.966 E8.46772
G1 X94.401 Y123.823 E9.10442
G1 X94.411 Y123.158 E9.12654
G1 X94.465 Y122.239 E9.15715
G1 X94.598 Y121.328 E9.18778
G1 X94.81 Y120.432 E9.2184
G1 X95.099 Y119.557 E9.24905
G1 X95.463 Y118.712 E9.27965
G1 X95.898 Y117.901 E9.31026
G1 X96.403 Y117.13 E9.34091
G1 X96.972 Y116.407 E9.37152
G1 X97.602 Y115.735 E9.40215
G1 X98.288 Y115.121 E9.43277
G0 F6000 X98.675 Y115.322
G1 F1200 X99.407 Y114.793 E9.46281
G1 X100.183 Y114.331 E9.49285
G1 X100.997 Y113.94 E9.52288
G1 X101.842 Y113.621 E9.55293
G1 X102.712 Y113.379 E9.58296
G1 X103.6 Y113.215 E9.61299
G1 X104.723 Y113.121 E9.65048
G1 X105.043 Y113.112 E9.66112
G1 X105.33 Y113.108 E9.67067
G1 X121.31 Y113.108 E10.20217
G1 X122.154 Y113.119 E10.23024
G1 X123.056 Y113.172 E10.26029
G1 X123.949 Y113.304 E10.29032
G1 X124.827 Y113.515 E10.32035
G1 X125.683 Y113.803 E10.35039
G1 X126.51 Y114.165 E10.38042
G1 X127.302 Y114.6 E10.41047
G1 X128.053 Y115.102 E10.44052
G1 X128.756 Y115.669 E10.47055
G1 X129.406 Y116.296 E10.50059
G1 X129.998 Y116.978 E10.53063
G1 X130.528 Y117.709 E10.56066
G1 X130.99 Y118.485 E10.5907
G1 X131.383 Y119.298 E10.62073
G1 X131.701 Y120.143 E10.65076
G1 X131.944 Y121.013 E10.68081
G1 X132.109 Y121.901 E10.71085
G1 X132.204 Y123.032 E10.7486
G1 X132.213 Y123.353 E10.75928
G1 X132.217 Y123.636 E10.76869
G1 X132.217 Y127.787 E10.90675
G1 X132.208 Y128.43 E10.92814
G1 X132.2 Y128.716 E10.93766
G1 X132.169 Y129.455 E10.96226
G1 X132.096 Y132.065 E11.0491
G1 X132.096 Y134.6 E11.13342
G1 X132.17 Y137.191 E11.21963
G1 X132.195 Y137.722 E11.23731
G1 X132.213 Y138.346 E11.25807
G1 X132.217 Y138.637 E11.26775
G1 X132.217 Y142.749 E11.40452
G1 X132.208 Y143.432 E11.42724
G1 X132.156 Y144.334 E11.45729
G1 X132.025 Y145.228 E11.48734
G1 X131.815 Y146.106 E11.51736
G1 X131.528 Y146.962 E11.54739
G1 X131.167 Y147.79 E11.57744
G1 X130.733 Y148.582 E11.60747
G1 X130.232 Y149.333 E11.6375
G1 X129.666 Y150.037 E11.66754
G1 X129.04 Y150.688 E11.69758
G1 X128.358 Y151.281 E11.72764
G1 X127.628 Y151.811 E11.75765
G1 X126.852 Y152.275 E11.78772
G1 X126.039 Y152.668 E11.81775
G1 X125.195 Y152.988 E11.84777
G1 X124.325 Y153.232 E11.87783
G1 X123.438 Y153.397 E11.90783
G1 X122.271 Y153.495 E11.94679
G1 X121.882 Y153.505 E11.95973
G1 X121.62 Y153.508 E11.96844
G1 X105.575 Y153.507 E12.5021
G1 X104.877 Y153.498 E12.52532
G1 X103.976 Y153.447 E12.55533
G1 X103.082 Y153.315 E12.58539
G1 X102.204 Y153.106 E12.61541
G1 X101.347 Y152.819 E12.64547
G1 X100.52 Y152.458 E12.67548
G1 X99.727 Y152.025 E12.70553
G1 X98.976 Y151.524 E12.73556
G1 X98.272 Y150.958 E12.7656
G1 X97.621 Y150.332 E12.79564
G1 X97.028 Y149.651 E12.82568
G1 X96.498 Y148.92 E12.85571
G1 X96.034 Y148.145 E12.88575
G1 X95.64 Y147.332 E12.9158
G1 X95.32 Y146.488 E12.94582
G1 X95.076 Y145.618 E12.97587
G1 X94.91 Y144.73 E13.00592
G1 X94.813 Y143.575 E13.04447
G1 X94.804 Y143.242 E13.05555
G1 X94.8 Y142.966 E13.06473
G1 X94.801 Y123.829 E13.70123
G1 X94.811 Y123.164 E13.72335
G1 X94.865 Y122.262 E13.75341
G1 X94.998 Y121.369 E13.78343
G1 X95.209 Y120.491 E13.81347
G1 X95.498 Y119.635 E13.84352
G1 X95.861 Y118.808 E13.87356
G1 X96.295 Y118.017 E13.90357
G1 X96.798 Y117.266 E13.93363
G1 X97.366 Y116.564 E13.96366
G1 X97.993 Y115.914 E13.9937
G1 X98.675 Y115.322 E14.02374
G1 F2700 E9.02374
;MESH:Cutter Pivot Point.STL
G0 F6000 X105.414 Y122.643
G0 X105.414 Y123.722
G0 X120.835 Y124.49
G0 X120.836 Y127.126
G0 X111.618 Y127.126
G0 X112.372 Y138.736
G0 X120.835 Y139.49
G0 X121.018 Y142.308
;TYPE:WALL-INNER
G1 F2700 E14.02374
G1 F1200 X120.819 Y142.308 E14.03036
G1 X106 Y142.308 E14.52324
G1 X106 Y124.308 E15.12192
G1 X121.017 Y124.308 E15.62139
G1 X121.018 Y127.109 E15.71455
G1 X121.018 Y127.308 E15.72117
G1 X120.819 Y127.308 E15.72545
G1 X111.8 Y127.308 E16.02542
G1 X111.8 Y139.308 E16.42455
G1 X121.017 Y139.308 E16.73111
G1 X121.018 Y142.109 E16.82427
G1 X121.018 Y142.308 E16.82855
G0 F6000 X121.418 Y142.708
G1 F1200 X121.219 Y142.708 E16.83517
G1 X105.6 Y142.708 E17.35466
G1 X105.6 Y123.908 E17.97995
G1 X121.417 Y123.908 E18.50602
G1 X121.418 Y127.509 E18.62579
G1 X121.418 Y127.708 E18.63241
G1 X121.219 Y127.708 E18.63669
G1 X112.2 Y127.708 E18.93667
G1 X112.2 Y138.908 E19.30918
G1 X121.417 Y138.908 E19.61574
G1 X121.418 Y142.509 E19.73551
G1 X121.418 Y142.708 E19.73979
G0 F6000 X121.818 Y143.108
;TYPE:WALL-OUTER
G1 F1200 X105.2 Y143.108 E20.29251
G1 X105.2 Y123.508 E20.94441
G1 X121.817 Y123.508 E21.49709
G1 X121.818 Y128.108 E21.65009
G1 X112.6 Y128.108 E21.95668
G1 X112.6 Y138.508 E22.30259
G1 X121.817 Y138.508 E22.60914
G1 X121.818 Y143.108 E22.76214
G0 F6000 X121.548 Y142.838
G0 X120.908 Y141.918
G0 X120.628 Y141.918
;TYPE:SKIN
G1 F1200 X106.39 Y141.918 E23.2357
G1 X106.39 Y124.698 E23.80844
G1 X120.627 Y124.698 E24.28196
G1 X120.628 Y126.918 E24.3558
G1 X111.41 Y126.918 E24.66239
G1 X111.41 Y139.698 E25.08746
G1 X120.627 Y139.698 E25.39402
G1 X120.628 Y141.918 E25.46785
G0 F6000 X120.908 Y141.918
G0 X106.684 Y142.198
G0 X106.684 Y141.757
G1 F1200 X106.55 Y141.622 E25.47418
G0 F6000 X106.55 Y141.057
G1 F1200 X107.25 Y141.757 E25.5071
G0 F6000 X107.816 Y141.757
G1 F1200 X106.55 Y140.491 E25.56665
G0 F6000 X106.55 Y139.925
G1 F1200 X108.381 Y141.757 E25.6528
G0 F6000 X108.947 Y141.757
G1 F1200 X106.55 Y139.36 E25.76555
G0 F6000 X106.55 Y138.794
G1 F1200 X109.513 Y141.757 E25.90492
G0 F6000 X110.078 Y141.757
G1 F1200 X106.55 Y138.228 E26.07089
G0 F6000 X106.55 Y137.663
G1 F1200 X110.644 Y141.757 E26.26346
G0 F6000 X111.21 Y141.757
G1 F1200 X106.55 Y137.097 E26.48265
G0 F6000 X106.55 Y136.531
G1 F1200 X111.775 Y141.757 E26.72844
G0 F6000 X112.341 Y141.757
G1 F1200 X106.55 Y135.966 E27.00083
G0 F6000 X106.55 Y135.4
G1 F1200 X112.907 Y141.757 E27.29985
G0 F6000 X113.472 Y141.757
G1 F1200 X111.572 Y139.857 E27.38922
G0 F6000 X111.25 Y139.534
G1 F1200 X106.55 Y134.834 E27.61029
G0 F6000 X106.55 Y134.268
G1 F1200 X111.25 Y138.969 E27.83139
G0 F6000 X111.25 Y138.403
G1 F1200 X106.55 Y133.703 E28.05246
G0 F6000 X106.55 Y133.137
G1 F1200 X111.25 Y137.837 E28.27354
G0 F6000 X111.25 Y137.272
G1 F1200 X106.55 Y132.571 E28.49463
G0 F6000 X106.55 Y132.006
G1 F1200 X111.25 Y136.706 E28.71571
G0 F6000 X111.25 Y136.14
G1 F1200 X106.55 Y131.44 E28.93678
G0 F6000 X106.55 Y130.874
G1 F1200 X111.25 Y135.574 E29.15785
G0 F6000 X111.25 Y135.009
G1 F1200 X106.55 Y130.309 E29.37893
G0 F6000 X106.55 Y129.743
G1 F1200 X111.25 Y134.443 E29.6
G0 F6000 X111.25 Y133.877
G1 F1200 X106.55 Y129.177 E29.82107
G0 F6000 X106.55 Y128.612
G1 F1200 X111.25 Y133.312 E30.04215
G0 F6000 X111.25 Y132.746
G1 F1200 X106.55 Y128.046 E30.26322
G0 F6000 X106.55 Y127.48
G1 F1200 X111.25 Y132.18 E30.48429
G0 F6000 X111.25 Y131.615
G1 F1200 X106.55 Y126.915 E30.70537
G0 F6000 X106.55 Y126.349
G1 F1200 X111.25 Y131.049 E30.92644
G0 F6000 X111.25 Y130.483
G1 F1200 X106.55 Y125.783 E31.14752
G0 F6000 X106.55 Y125.218
G1 F1200 X111.25 Y129.918 E31.36859
G0 F6000 X111.25 Y129.352
G1 F1200 X106.755 Y124.857 E31.58002
G0 F6000 X107.321 Y124.857
G1 F1200 X111.25 Y128.786 E31.76483
G0 F6000 X111.25 Y128.221
G1 F1200 X107.886 Y124.857 E31.92306
G0 F6000 X108.452 Y124.857
G1 F1200 X111.25 Y127.655 E32.05467
G0 F6000 X111.25 Y127.089
G1 F1200 X109.018 Y124.857 E32.15966
G0 F6000 X109.583 Y124.857
G1 F1200 X111.483 Y126.757 E32.24903
G0 F6000 X112.049 Y126.757
G1 F1200 X110.149 Y124.857 E32.3384
G0 F6000 X110.715 Y124.857
G1 F1200 X112.615 Y126.757 E32.42777
G0 F6000 X113.18 Y126.757
G1 F1200 X111.28 Y124.857 E32.51714
G0 F6000 X111.846 Y124.857
G1 F1200 X113.746 Y126.757 E32.60651
G0 F6000 X114.312 Y126.757
G1 F1200 X112.412 Y124.857 E32.69588
G0 F6000 X112.977 Y124.857
G1 F1200 X114.877 Y126.757 E32.78525
G0 F6000 X115.443 Y126.757
G1 F1200 X113.543 Y124.857 E32.87462
G0 F6000 X114.109 Y124.857
G1 F1200 X116.009 Y126.757 E32.96399
G0 F6000 X116.575 Y126.757
G1 F1200 X114.675 Y124.857 E33.05336
G0 F6000 X115.24 Y124.857
G1 F1200 X117.14 Y126.757 E33.14273
G0 F6000 X117.706 Y126.757
G1 F1200 X115.806 Y124.857 E33.2321
G0 F6000 X116.372 Y124.857
G1 F1200 X118.272 Y126.757 E33.32147
G0 F6000 X118.837 Y126.757
G1 F1200 X116.937 Y124.857 E33.41084
G0 F6000 X117.503 Y124.857
G1 F1200 X119.403 Y126.757 E33.50021
G0 F6000 X119.969 Y126.757
G1 F1200 X118.069 Y124.857 E33.58958
G0 F6000 X118.634 Y124.857
G1 F1200 X120.468 Y126.69 E33.67582
G0 F6000 X120.468 Y126.125
G1 F1200 X119.2 Y124.857 E33.73546
G0 F6000 X119.766 Y124.857
G1 F1200 X120.467 Y125.558 E33.76844
G0 F6000 X120.467 Y124.993
G1 F1200 X120.331 Y124.857 E33.77483
G1 F2700 E28.77483
G0 F6000 X120.331 Y124.418
G0 X120.835 Y124.49
G0 X120.836 Y127.126
G0 X112.372 Y127.88
G0 X112.372 Y138.736
G0 X120.058 Y139.418
G0 X120.058 Y139.857
G1 F2700 E33.77483
G1 F1200 X120.467 Y140.266 E33.79407
G0 F6000 X120.467 Y140.832
G1 F1200 X119.492 Y139.857 E33.83993
G0 F6000 X118.926 Y139.857
G1 F1200 X120.467 Y141.398 E33.91242
G0 F6000 X120.261 Y141.757
G1 F1200 X118.361 Y139.857 E34.00179
G0 F6000 X117.795 Y139.857
G1 F1200 X119.695 Y141.757 E34.09116
G0 F6000 X119.129 Y141.757
G1 F1200 X117.229 Y139.857 E34.18053
G0 F6000 X116.664 Y139.857
G1 F1200 X118.564 Y141.757 E34.2699
G0 F6000 X117.998 Y141.757
G1 F1200 X116.098 Y139.857 E34.35927
G0 F6000 X115.532 Y139.857
G1 F1200 X117.432 Y141.757 E34.44864
G0 F6000 X116.867 Y141.757
G1 F1200 X114.967 Y139.857 E34.53801
G0 F6000 X114.401 Y139.857
G1 F1200 X116.301 Y141.757 E34.62738
G0 F6000 X115.735 Y141.757
G1 F1200 X113.835 Y139.857 E34.71675
G0 F6000 X113.27 Y139.857
G1 F1200 X115.17 Y141.757 E34.80612
G0 F6000 X114.604 Y141.757
G1 F1200 X112.704 Y139.857 E34.89549
G0 F6000 X112.138 Y139.857
G1 F1200 X114.038 Y141.757 E34.98486
G0 F6000 X114.038 Y142.498
;MESH:NONMESH
G0 F300 X114.038 Y142.498 Z0.5
G0 F6000 X121.351 Y142.308
;TIME_ELAPSED:66.833678
;LAYER:1
