;FLAVOR:Marlin
;TIME:2684
;Filament used: 1.97696m
;Layer height: 0.3
;MINX:69
;MINY:100.161
;MINZ:0.2
;MAXX:166
;MAXY:137.162
;MAXZ:6.2
;Generated with Cura_SteamEngine 4.8.0
M140 S50
M105
M190 S50
M104 S200
M105
M109 S200
M82 ;absolute extrusion mode
; Ender 3 Custom Start G-code
G92 E0 ; Reset Extruder
G28 ; Home all axes
G1 Z2.0 F3000 ; Move Z Axis up little to prevent scratching of Heat Bed
G1 X0.1 Y20 Z0.3 F5000.0 ; Move to start position
G1 X0.1 Y200.0 Z0.3 F1500.0 E15 ; Draw the first line
G1 X0.4 Y200.0 Z0.3 F5000.0 ; Move to side a little
G1 X0.4 Y20 Z0.3 F1500.0 E30 ; Draw the second line
G92 E0 ; Reset Extruder
G1 Z2.0 F3000 ; Move Z Axis up little to prevent scratching of Heat Bed
G1 X5 Y20 Z0.3 F5000.0 ; Move over to prevent blob squish
G92 E0
G92 E0
G1 F2700 E-5
;LAYER_COUNT:21
;LAYER:0
M107
G0 F6000 X73.626 Y102.212 Z0.2
;TYPE:SKIRT
G1 F2700 E0
G1 F1200 X74.412 Y101.7 E0.0312
G1 X75.239 Y101.258 E0.06239
G1 X76.101 Y100.888 E0.09359
G1 X76.991 Y100.592 E0.12478
G1 X77.903 Y100.374 E0.15597
G1 X78.83 Y100.233 E0.18716
G1 X79.701 Y100.174 E0.21619
G1 X80.022 Y100.165 E0.22687
G1 X80.33 Y100.161 E0.23712
G1 X154.293 Y100.161 E2.69714
G1 X155.149 Y100.172 E2.72561
G1 X156.085 Y100.226 E2.7568
G1 X157.013 Y100.358 E2.78797
G1 X157.927 Y100.57 E2.81918
G1 X158.819 Y100.859 E2.85036
G1 X159.684 Y101.222 E2.88157
G1 X160.514 Y101.658 E2.91275
G1 X161.305 Y102.163 E2.94396
G1 X162.049 Y102.734 E2.97515
G1 X162.742 Y103.366 E3.00635
G1 X163.379 Y104.054 E3.03753
G1 X163.954 Y104.795 E3.06873
G1 X164.465 Y105.581 E3.09991
G1 X164.907 Y106.409 E3.13113
G1 X165.276 Y107.271 E3.16232
G1 X165.571 Y108.161 E3.1935
G1 X165.789 Y109.073 E3.22469
G1 X165.929 Y110.001 E3.2559
G1 X165.987 Y110.862 E3.28461
G1 X165.996 Y111.182 E3.29525
G1 X166 Y111.491 E3.30553
G1 X165.999 Y125.561 E3.7735
G1 X165.99 Y126.288 E3.79768
G1 X165.939 Y127.225 E3.82889
G1 X165.807 Y128.153 E3.86007
G1 X165.598 Y129.067 E3.89125
G1 X165.311 Y129.96 E3.92245
G1 X164.949 Y130.826 E3.95367
G1 X164.515 Y131.657 E3.98485
G1 X164.011 Y132.448 E4.01605
G1 X163.442 Y133.193 E4.04723
G1 X162.811 Y133.888 E4.07845
G1 X162.124 Y134.526 E4.10963
G1 X161.385 Y135.103 E4.14082
G1 X160.599 Y135.615 E4.17202
G1 X159.773 Y136.058 E4.20319
G1 X158.911 Y136.43 E4.23442
G1 X158.022 Y136.726 E4.26558
G1 X157.11 Y136.946 E4.29678
G1 X156.183 Y137.087 E4.32797
G1 X155.299 Y137.148 E4.35744
G1 X154.978 Y137.157 E4.36812
G1 X154.671 Y137.161 E4.37834
G1 X145.608 Y137.162 E4.67977
G1 X144.52 Y137.158 E4.71596
G1 X144.144 Y137.161 E4.72847
G1 X80.549 Y137.16 E6.84364
G1 X79.851 Y137.15 E6.86686
G1 X78.915 Y137.096 E6.89804
G1 X77.987 Y136.964 E6.92922
G1 X77.073 Y136.752 E6.96043
G1 X76.181 Y136.463 E6.99161
G1 X75.316 Y136.1 E7.02281
G1 X74.486 Y135.664 E7.054
G1 X73.695 Y135.159 E7.08521
G1 X72.951 Y134.588 E7.1164
G1 X72.258 Y133.956 E7.1476
G1 X71.621 Y133.268 E7.17878
G1 X71.046 Y132.527 E7.20998
G1 X70.535 Y131.741 E7.24116
G1 X70.093 Y130.913 E7.27238
G1 X69.724 Y130.051 E7.30357
G1 X69.429 Y129.161 E7.33475
G1 X69.211 Y128.249 E7.36594
G1 X69.071 Y127.321 E7.39715
G1 X69.013 Y126.449 E7.42622
G1 X69.004 Y126.117 E7.43727
G1 X69 Y125.819 E7.44718
G1 X69.001 Y111.686 E7.91724
G1 X69.01 Y111.021 E7.93936
G1 X69.063 Y110.085 E7.97055
G1 X69.195 Y109.156 E8.00175
G1 X69.406 Y108.242 E8.03295
G1 X69.694 Y107.35 E8.06413
G1 X70.057 Y106.485 E8.09533
G1 X70.492 Y105.654 E8.12653
G1 X70.996 Y104.864 E8.1577
G1 X71.566 Y104.119 E8.18889
G1 X72.198 Y103.425 E8.22011
G1 X72.886 Y102.788 E8.2513
G1 X73.626 Y102.212 E8.28249
G0 F6000 X74.01 Y102.431
G1 F1200 X74.791 Y101.943 E8.31312
G1 X75.611 Y101.525 E8.34373
G1 X76.465 Y101.18 E8.37437
G1 X77.345 Y100.91 E8.40498
G1 X78.245 Y100.718 E8.43559
G1 X79.159 Y100.604 E8.46622
G1 X79.712 Y100.574 E8.48464
G1 X80.033 Y100.565 E8.49533
G1 X80.33 Y100.561 E8.5052
G1 X154.293 Y100.561 E10.96522
G1 X155.143 Y100.572 E10.9935
G1 X156.062 Y100.625 E11.02411
G1 X156.973 Y100.758 E11.05474
G1 X157.869 Y100.969 E11.08535
G1 X158.743 Y101.257 E11.11596
G1 X159.59 Y101.62 E11.14661
G1 X160.401 Y102.055 E11.17722
G1 X161.171 Y102.559 E11.20783
G1 X161.895 Y103.128 E11.23845
G1 X162.567 Y103.758 E11.26909
G1 X163.182 Y104.443 E11.29971
G1 X163.735 Y105.179 E11.33033
G1 X164.222 Y105.96 E11.36094
G1 X164.639 Y106.781 E11.39157
G1 X164.984 Y107.635 E11.4222
G1 X165.253 Y108.515 E11.45281
G1 X165.445 Y109.416 E11.48345
G1 X165.558 Y110.329 E11.51405
G1 X165.587 Y110.873 E11.53216
G1 X165.596 Y111.193 E11.54281
G1 X165.6 Y111.491 E11.55272
G1 X165.599 Y125.556 E12.02053
G1 X165.59 Y126.283 E12.04471
G1 X165.539 Y127.202 E12.07532
G1 X165.408 Y128.114 E12.10597
G1 X165.198 Y129.01 E12.13658
G1 X164.912 Y129.885 E12.16719
G1 X164.551 Y130.732 E12.19782
G1 X164.117 Y131.544 E12.22844
G1 X163.615 Y132.316 E12.25907
G1 X163.047 Y133.041 E12.2897
G1 X162.419 Y133.714 E12.32032
G1 X161.735 Y134.33 E12.35093
G1 X161 Y134.884 E12.38155
G1 X160.22 Y135.373 E12.41217
G1 X159.4 Y135.792 E12.44279
G1 X158.547 Y136.138 E12.47341
G1 X157.667 Y136.409 E12.50403
G1 X156.767 Y136.602 E12.53465
G1 X155.853 Y136.717 E12.56529
G1 X155.288 Y136.748 E12.58411
G1 X154.967 Y136.757 E12.59479
G1 X154.671 Y136.761 E12.60464
G1 X145.61 Y136.762 E12.90601
G1 X144.519 Y136.758 E12.94229
G1 X144.141 Y136.761 E12.95486
G1 X80.555 Y136.76 E15.06974
G1 X79.857 Y136.75 E15.09296
G1 X78.938 Y136.697 E15.12358
G1 X78.027 Y136.564 E15.1542
G1 X77.131 Y136.353 E15.18482
G1 X76.257 Y136.065 E15.21542
G1 X75.41 Y135.702 E15.24607
G1 X74.599 Y135.267 E15.27668
G1 X73.829 Y134.763 E15.30729
G1 X73.105 Y134.194 E15.33792
G1 X72.433 Y133.564 E15.36855
G1 X71.818 Y132.879 E15.39917
G1 X71.265 Y132.143 E15.42979
G1 X70.778 Y131.362 E15.4604
G1 X70.361 Y130.541 E15.49103
G1 X70.016 Y129.687 E15.52167
G1 X69.747 Y128.807 E15.55227
G1 X69.555 Y127.906 E15.58291
G1 X69.442 Y126.993 E15.61351
G1 X69.413 Y126.438 E15.63199
G1 X69.404 Y126.106 E15.64304
G1 X69.4 Y125.819 E15.65259
G1 X69.401 Y111.692 E16.12245
G1 X69.41 Y111.027 E16.14457
G1 X69.462 Y110.107 E16.17522
G1 X69.594 Y109.196 E16.20584
G1 X69.805 Y108.3 E16.23645
G1 X70.092 Y107.425 E16.26708
G1 X70.455 Y106.579 E16.2977
G1 X70.889 Y105.767 E16.32832
G1 X71.392 Y104.996 E16.35894
G1 X71.961 Y104.272 E16.38957
G1 X72.589 Y103.6 E16.42016
G1 X73.274 Y102.984 E16.4508
G1 X74.01 Y102.431 E16.48142
G0 F6000 X74.394 Y102.655
G1 F1200 X75.169 Y102.192 E16.51145
G1 X75.982 Y101.799 E16.54148
G1 X76.827 Y101.479 E16.57153
G1 X77.696 Y101.236 E16.60155
G1 X78.584 Y101.07 E16.63159
G1 X79.723 Y100.974 E16.66961
G1 X80.044 Y100.965 E16.68029
G1 X80.33 Y100.961 E16.6898
G1 X154.293 Y100.961 E19.14982
G1 X155.137 Y100.972 E19.1779
G1 X156.039 Y101.025 E19.20795
G1 X156.932 Y101.157 E19.23797
G1 X157.81 Y101.368 E19.26801
G1 X158.666 Y101.656 E19.29805
G1 X159.493 Y102.018 E19.32807
G1 X160.285 Y102.453 E19.35813
G1 X161.036 Y102.955 E19.38817
G1 X161.739 Y103.522 E19.41821
G1 X162.389 Y104.149 E19.44825
G1 X162.981 Y104.831 E19.47829
G1 X163.511 Y105.562 E19.50832
G1 X163.973 Y106.338 E19.53835
G1 X164.366 Y107.151 E19.56839
G1 X164.684 Y107.996 E19.59842
G1 X164.927 Y108.866 E19.62846
G1 X165.092 Y109.754 E19.6585
G1 X165.187 Y110.884 E19.69622
G1 X165.196 Y111.204 E19.70687
G1 X165.2 Y111.491 E19.71641
G1 X165.199 Y125.551 E20.18405
G1 X165.19 Y126.278 E20.20823
G1 X165.139 Y127.18 E20.23828
G1 X165.008 Y128.074 E20.26833
G1 X164.799 Y128.952 E20.29835
G1 X164.513 Y129.809 E20.3284
G1 X164.152 Y130.637 E20.35844
G1 X163.72 Y131.429 E20.38845
G1 X163.219 Y132.181 E20.4185
G1 X162.653 Y132.885 E20.44855
G1 X162.028 Y133.536 E20.47856
G1 X161.347 Y134.13 E20.50862
G1 X160.616 Y134.661 E20.53867
G1 X159.842 Y135.125 E20.56868
G1 X159.029 Y135.519 E20.59873
G1 X158.185 Y135.839 E20.62875
G1 X157.315 Y136.084 E20.65882
G1 X156.428 Y136.25 E20.68883
G1 X155.277 Y136.348 E20.72725
G1 X154.956 Y136.357 E20.73793
G1 X154.671 Y136.361 E20.74741
G1 X145.611 Y136.362 E21.04875
G1 X144.517 Y136.358 E21.08514
G1 X144.138 Y136.361 E21.09774
G1 X80.561 Y136.36 E23.21232
G1 X79.863 Y136.35 E23.23554
G1 X78.961 Y136.297 E23.26559
G1 X78.068 Y136.165 E23.29562
G1 X77.19 Y135.954 E23.32565
G1 X76.334 Y135.666 E23.35569
G1 X75.507 Y135.304 E23.38571
G1 X74.715 Y134.869 E23.41577
G1 X73.964 Y134.367 E23.44581
G1 X73.261 Y133.8 E23.47585
G1 X72.611 Y133.173 E23.50589
G1 X72.019 Y132.491 E23.53593
G1 X71.489 Y131.76 E23.56596
G1 X71.027 Y130.984 E23.596
G1 X70.634 Y130.171 E23.62603
G1 X70.316 Y129.326 E23.65606
G1 X70.073 Y128.456 E23.6861
G1 X69.908 Y127.568 E23.71614
G1 X69.813 Y126.427 E23.75423
G1 X69.804 Y126.095 E23.76527
G1 X69.8 Y125.819 E23.77445
G1 X69.801 Y111.697 E24.24415
G1 X69.81 Y111.032 E24.26627
G1 X69.862 Y110.13 E24.29632
G1 X69.994 Y109.237 E24.32635
G1 X70.204 Y108.359 E24.35637
G1 X70.491 Y107.502 E24.38643
G1 X70.853 Y106.675 E24.41646
G1 X71.286 Y105.883 E24.44648
G1 X71.788 Y105.132 E24.47652
G1 X72.355 Y104.428 E24.50659
G1 X72.981 Y103.778 E24.5366
G1 X73.662 Y103.185 E24.56664
G1 X74.394 Y102.655 E24.5967
G1 F2700 E19.5967
;MESH:Belt Guide.STL
G0 F6000 X150.73 Y118.91
G0 X149.032 Y119.714
G0 X150.199 Y120.664
;TYPE:WALL-INNER
G1 F2700 E24.5967
G1 F1200 X150.846 Y120.881 E24.61939
G1 X151.29 Y120.918 E24.63421
G1 X151.966 Y120.806 E24.657
G1 X152.609 Y120.47 E24.68113
G1 X153.114 Y119.946 E24.70534
G1 X153.424 Y119.288 E24.72953
G1 X153.511 Y118.569 E24.75362
G1 X153.366 Y117.857 E24.77779
G1 X153.003 Y117.23 E24.80188
G1 X152.46 Y116.749 E24.82601
G1 X151.791 Y116.462 E24.85022
G1 X151.067 Y116.405 E24.87438
G1 X150.363 Y116.579 E24.8985
G1 X149.751 Y116.965 E24.92256
G1 X149.289 Y117.529 E24.94681
G1 X149.032 Y118.209 E24.97099
G1 X149.004 Y118.934 E24.99512
G1 X149.206 Y119.631 E25.01926
G1 X149.618 Y120.229 E25.04341
G1 X150.199 Y120.664 E25.06755
G0 F6000 X150.387 Y120.305
G1 F1200 X150.927 Y120.486 E25.08649
G1 X151.274 Y120.515 E25.09807
G1 X151.838 Y120.422 E25.11709
G1 X152.366 Y120.146 E25.1369
G1 X152.78 Y119.716 E25.15676
G1 X153.035 Y119.176 E25.17662
G1 X153.106 Y118.585 E25.19642
G1 X152.987 Y118.001 E25.21624
G1 X152.689 Y117.486 E25.23603
G1 X152.243 Y117.091 E25.25584
G1 X151.694 Y116.856 E25.27571
G1 X151.1 Y116.809 E25.29553
G1 X150.522 Y116.952 E25.31533
G1 X150.019 Y117.269 E25.3351
G1 X149.64 Y117.732 E25.35501
G1 X149.429 Y118.29 E25.37485
G1 X149.406 Y118.885 E25.39465
G1 X149.572 Y119.457 E25.41446
G1 X149.91 Y119.948 E25.43429
G1 X150.387 Y120.305 E25.4541
G0 F6000 X150.575 Y119.946
;TYPE:WALL-OUTER
G1 F1200 X151.008 Y120.091 E25.46929
G1 X151.258 Y120.112 E25.47764
G1 X151.71 Y120.038 E25.49287
G1 X152.123 Y119.822 E25.50837
G1 X152.446 Y119.486 E25.52387
G1 X152.646 Y119.064 E25.53941
G1 X152.701 Y118.602 E25.55488
G1 X152.608 Y118.145 E25.57039
G1 X152.375 Y117.742 E25.58587
G1 X152.026 Y117.433 E25.60138
G1 X151.597 Y117.25 E25.61689
G1 X151.133 Y117.213 E25.63237
G1 X150.681 Y117.325 E25.64786
G1 X150.287 Y117.573 E25.66334
G1 X149.991 Y117.935 E25.6789
G1 X149.826 Y118.371 E25.6944
G1 X149.808 Y118.836 E25.70988
G1 X149.938 Y119.283 E25.72536
G1 X150.202 Y119.667 E25.74086
G1 X150.575 Y119.946 E25.75636
G0 F6000 X150.371 Y120.335
G1 F2700 E20.75636
G0 F6000 X149.032 Y119.714
G0 X150.73 Y118.91
G0 X145.042 Y118.902
G0 X127.109 Y118.878
G0 X125.98 Y118.91
G0 X105.622 Y118.85
G0 X104.48 Y118.91
G0 X84.304 Y118.822
G0 X86.109 Y119.342
G0 X84.466 Y120.806
;TYPE:WALL-INNER
G1 F2700 E25.75636
G1 F1200 X85.109 Y120.47 E25.78049
G1 X85.614 Y119.946 E25.80469
G1 X85.924 Y119.288 E25.82888
G1 X86.011 Y118.569 E25.85297
G1 X85.866 Y117.857 E25.87714
G1 X85.503 Y117.23 E25.90123
G1 X84.96 Y116.749 E25.92536
G1 X84.291 Y116.462 E25.94957
G1 X83.567 Y116.405 E25.97373
G1 X82.863 Y116.579 E25.99785
G1 X82.251 Y116.965 E26.02191
G1 X81.789 Y117.529 E26.04616
G1 X81.532 Y118.209 E26.07034
G1 X81.504 Y118.934 E26.09447
G1 X81.706 Y119.631 E26.11861
G1 X82.118 Y120.229 E26.14276
G1 X82.699 Y120.664 E26.1669
G1 X83.346 Y120.881 E26.1896
G1 X83.79 Y120.918 E26.20442
G1 X84.466 Y120.806 E26.22721
G0 F6000 X84.338 Y120.422
G1 F1200 X84.866 Y120.146 E26.24702
G1 X85.28 Y119.716 E26.26688
G1 X85.535 Y119.176 E26.28674
G1 X85.606 Y118.585 E26.30654
G1 X85.487 Y118.001 E26.32636
G1 X85.189 Y117.486 E26.34615
G1 X84.743 Y117.091 E26.36597
G1 X84.194 Y116.856 E26.38583
G1 X83.6 Y116.809 E26.40565
G1 X83.022 Y116.952 E26.42545
G1 X82.519 Y117.269 E26.44523
G1 X82.14 Y117.732 E26.46513
G1 X81.929 Y118.29 E26.48497
G1 X81.906 Y118.885 E26.50477
G1 X82.072 Y119.457 E26.52458
G1 X82.41 Y119.948 E26.54441
G1 X82.887 Y120.305 E26.56423
G1 X83.427 Y120.486 E26.58317
G1 X83.774 Y120.515 E26.59475
G1 X84.338 Y120.422 E26.61376
G0 F6000 X84.21 Y120.038
;TYPE:WALL-OUTER
G1 F1200 X84.623 Y119.822 E26.62926
G1 X84.946 Y119.486 E26.64477
G1 X85.146 Y119.064 E26.6603
G1 X85.201 Y118.602 E26.67577
G1 X85.108 Y118.145 E26.69128
G1 X84.875 Y117.742 E26.70677
G1 X84.526 Y117.433 E26.72227
G1 X84.097 Y117.25 E26.73778
G1 X83.633 Y117.213 E26.75326
G1 X83.181 Y117.325 E26.76875
G1 X82.787 Y117.573 E26.78424
G1 X82.491 Y117.935 E26.79979
G1 X82.326 Y118.371 E26.8153
G1 X82.308 Y118.836 E26.83077
G1 X82.438 Y119.283 E26.84626
G1 X82.702 Y119.667 E26.86175
G1 X83.075 Y119.946 E26.87725
G1 X83.508 Y120.091 E26.89244
G1 X83.758 Y120.112 E26.90078
G1 X84.21 Y120.038 E26.91601
G0 F6000 X84.349 Y120.455
G1 F2700 E21.91601
G0 F6000 X86.109 Y119.342
G0 X84.304 Y118.822
G0 X104.48 Y118.91
G0 X102.782 Y119.714
G0 X105.716 Y120.806
;TYPE:WALL-INNER
G1 F2700 E26.91601
G1 F1200 X106.359 Y120.47 E26.94014
G1 X106.864 Y119.946 E26.96435
G1 X107.174 Y119.288 E26.98854
G1 X107.261 Y118.569 E27.01263
G1 X107.116 Y117.857 E27.0368
G1 X106.753 Y117.23 E27.06089
G1 X106.21 Y116.749 E27.08502
G1 X105.541 Y116.462 E27.10923
G1 X104.817 Y116.405 E27.13339
G1 X104.113 Y116.579 E27.15751
G1 X103.501 Y116.965 E27.18157
G1 X103.039 Y117.529 E27.20582
G1 X102.782 Y118.209 E27.23
G1 X102.754 Y118.934 E27.25413
G1 X102.956 Y119.631 E27.27827
G1 X103.368 Y120.229 E27.30242
G1 X103.949 Y120.664 E27.32656
G1 X104.596 Y120.881 E27.34926
G1 X105.04 Y120.918 E27.36408
G1 X105.716 Y120.806 E27.38687
G0 F6000 X105.588 Y120.422
G1 F1200 X106.116 Y120.146 E27.40668
G1 X106.53 Y119.716 E27.42654
G1 X106.785 Y119.176 E27.4464
G1 X106.856 Y118.585 E27.4662
G1 X106.737 Y118.001 E27.48602
G1 X106.439 Y117.486 E27.50581
G1 X105.993 Y117.091 E27.52562
G1 X105.444 Y116.856 E27.54549
G1 X104.85 Y116.809 E27.56531
G1 X104.272 Y116.952 E27.58511
G1 X103.769 Y117.269 E27.60488
G1 X103.39 Y117.732 E27.62479
G1 X103.179 Y118.29 E27.64463
G1 X103.156 Y118.885 E27.66443
G1 X103.322 Y119.457 E27.68424
G1 X103.66 Y119.948 E27.70407
G1 X104.137 Y120.305 E27.72388
G1 X104.677 Y120.486 E27.74283
G1 X105.024 Y120.515 E27.75441
G1 X105.588 Y120.422 E27.77342
G0 F6000 X105.46 Y120.038
;TYPE:WALL-OUTER
G1 F1200 X105.873 Y119.822 E27.78892
G1 X106.196 Y119.486 E27.80442
G1 X106.396 Y119.064 E27.81996
G1 X106.451 Y118.602 E27.83543
G1 X106.358 Y118.145 E27.85094
G1 X106.125 Y117.742 E27.86642
G1 X105.776 Y117.433 E27.88193
G1 X105.347 Y117.25 E27.89744
G1 X104.883 Y117.213 E27.91292
G1 X104.431 Y117.325 E27.92841
G1 X104.037 Y117.573 E27.9439
G1 X103.741 Y117.935 E27.95945
G1 X103.576 Y118.371 E27.97495
G1 X103.558 Y118.836 E27.99043
G1 X103.688 Y119.283 E28.00591
G1 X103.952 Y119.667 E28.02141
G1 X104.325 Y119.946 E28.03691
G1 X104.758 Y120.091 E28.05209
G1 X105.008 Y120.112 E28.06044
G1 X105.46 Y120.038 E28.07567
G0 F6000 X105.599 Y120.455
G1 F2700 E23.07567
G0 F6000 X107.359 Y119.342
G0 X105.554 Y118.822
G0 X125.98 Y118.91
G0 X124.282 Y119.714
G0 X127.216 Y120.806
;TYPE:WALL-INNER
G1 F2700 E28.07567
G1 F1200 X127.859 Y120.47 E28.0998
G1 X128.364 Y119.946 E28.12401
G1 X128.674 Y119.288 E28.1482
G1 X128.761 Y118.569 E28.17229
G1 X128.616 Y117.857 E28.19645
G1 X128.253 Y117.23 E28.22055
G1 X127.71 Y116.749 E28.24468
G1 X127.041 Y116.462 E28.26889
G1 X126.317 Y116.405 E28.29305
G1 X125.613 Y116.579 E28.31716
G1 X125.001 Y116.965 E28.34123
G1 X124.539 Y117.529 E28.36548
G1 X124.282 Y118.209 E28.38966
G1 X124.254 Y118.934 E28.41379
G1 X124.456 Y119.631 E28.43793
G1 X124.868 Y120.229 E28.46208
